;FLAVOR:Marlin
;TIME:1718
;Filament used: 1.79343m
;Layer height: 0.2
;MINX:37.45
;MINY:33.796
;MINZ:0.2
;MAXX:67.33
;MAXY:63.676
;MAXZ:20.075
;LINEARADVANCEPROCESSED
;Generated with Cura_SteamEngine 4.12.1
M82 ;absolute extrusion mode
G21                                        ; metric values 
G90                                        ; absolute positioning 
M82                                        ; set extruder to absolute mode 
M107                                       ; start with the fan off 
M140 S60           ; Start heating the bed 
G4 S60                                     ; wait 1 minute 
M104 S200.0         ; start heating the hot end 
M190 S60           ; wait for bed 
M109 S200.0         ; wait for hotend 
M300 S1000 P500                            ; BEEP heating done 
G28 X0 Y10 Z0                              ; move X/Y to min endstops 
M420 S1                                    ; Enable leveling 
M420 Z2.0                                  ; Set leveling fading height to 2 mm 
G0 Z0.15                                   ; lift nozzle a bit 
G92 E0                                     ; zero the extruded length 
G1 X50 E25 F500                            ; Extrude 25mm of filament in a 5cm line. 
G92 E0                                     ; zero the extruded length again 
G1 E-2 F500                                ; Retract a little 
G1 X120 F4000                              ; Quickly wipe away from the filament line`
G92 E0
G92 E0
G1 F1800 E-3
;LAYER_COUNT:100
M900 K0.800000 T0 ;added by LinearAdvanceSettingPlugin
;LAYER:0
M107
G1 F1800 Z0.275
G0 F2160 X38.822 Y35.32 Z0.275
;TYPE:SKIRT
M900 K0.000000 T0 ;added by LinearAdvanceSettingPlugin
G1 F1800 Z0.2
G1 F1800 E0
G1 F1200 X39.284 Y34.894 E0.02717
G1 X39.797 Y34.531 E0.05434
G1 X40.352 Y34.236 E0.08152
G1 X40.94 Y34.014 E0.1087
G1 X41.551 Y33.868 E0.13586
G1 X42.39 Y33.796 E0.17227
G1 X62.39 Y33.796 E1.03703
G1 X63.017 Y33.836 E1.0642
G1 X63.634 Y33.955 E1.09137
G1 X64.231 Y34.152 E1.11855
G1 X64.798 Y34.423 E1.14572
G1 X65.326 Y34.763 E1.17288
G1 X65.806 Y35.168 E1.20003
G1 X66.232 Y35.63 E1.2272
G1 X66.595 Y36.143 E1.25438
G1 X66.89 Y36.698 E1.28155
G1 X67.112 Y37.286 E1.30873
G1 X67.258 Y37.897 E1.33589
G1 X67.33 Y38.736 E1.3723
G1 X67.33 Y58.736 E2.23706
G1 X67.29 Y59.363 E2.26423
G1 X67.171 Y59.98 E2.2914
G1 X66.974 Y60.577 E2.31858
G1 X66.703 Y61.144 E2.34575
G1 X66.363 Y61.672 E2.37291
G1 X65.958 Y62.152 E2.40006
G1 X65.496 Y62.578 E2.42723
G1 X64.983 Y62.941 E2.45441
G1 X64.428 Y63.236 E2.48158
G1 X63.84 Y63.458 E2.50876
G1 X63.229 Y63.604 E2.53592
G1 X62.39 Y63.676 E2.57233
G1 X42.39 Y63.676 E3.4371
G1 X41.763 Y63.636 E3.46426
G1 X41.146 Y63.517 E3.49143
G1 X40.549 Y63.32 E3.51861
G1 X39.982 Y63.049 E3.54578
G1 X39.454 Y62.709 E3.57294
G1 X38.974 Y62.304 E3.60009
G1 X38.548 Y61.842 E3.62727
G1 X38.185 Y61.329 E3.65444
G1 X37.89 Y60.774 E3.68161
G1 X37.668 Y60.186 E3.70879
G1 X37.522 Y59.575 E3.73595
G1 X37.45 Y58.736 E3.77236
G1 X37.45 Y38.736 E4.63713
G1 X37.49 Y38.109 E4.66429
G1 X37.609 Y37.492 E4.69146
G1 X37.806 Y36.895 E4.71864
G1 X38.077 Y36.328 E4.74582
G1 X38.417 Y35.8 E4.77297
G1 X38.822 Y35.32 E4.80012
G0 F2160 X39.334 Y35.543
G1 F1200 X39.79 Y35.162 E4.82582
G1 X40.293 Y34.845 E4.85152
G1 X40.834 Y34.599 E4.87722
G1 X41.403 Y34.428 E4.90291
G1 X41.99 Y34.334 E4.92862
G1 X42.39 Y34.316 E4.94593
G1 X62.39 Y34.316 E5.81069
G1 X62.983 Y34.356 E5.83639
G1 X63.565 Y34.475 E5.86208
G1 X64.126 Y34.671 E5.88777
G1 X64.656 Y34.941 E5.91349
G1 X65.144 Y35.279 E5.93916
G1 X65.583 Y35.68 E5.96486
G1 X65.964 Y36.136 E5.99056
G1 X66.281 Y36.639 E6.01626
G1 X66.527 Y37.18 E6.04196
G1 X66.698 Y37.749 E6.06765
G1 X66.792 Y38.336 E6.09335
G1 X66.81 Y38.736 E6.11067
G1 X66.81 Y58.736 E6.97543
G1 X66.77 Y59.329 E7.00113
G1 X66.651 Y59.911 E7.02681
G1 X66.455 Y60.472 E7.05251
G1 X66.185 Y61.002 E7.07823
G1 X65.847 Y61.49 E7.10389
G1 X65.446 Y61.929 E7.1296
G1 X64.99 Y62.31 E7.1553
G1 X64.487 Y62.627 E7.181
G1 X63.946 Y62.873 E7.2067
G1 X63.377 Y63.044 E7.23239
G1 X62.79 Y63.138 E7.25809
G1 X62.39 Y63.156 E7.27541
G1 X42.39 Y63.156 E8.14017
G1 X41.797 Y63.116 E8.16587
G1 X41.215 Y62.997 E8.19155
G1 X40.654 Y62.801 E8.21725
G1 X40.124 Y62.531 E8.24297
G1 X39.636 Y62.193 E8.26863
G1 X39.197 Y61.792 E8.29434
G1 X38.816 Y61.336 E8.32004
G1 X38.499 Y60.833 E8.34574
G1 X38.253 Y60.292 E8.37144
G1 X38.082 Y59.723 E8.39713
G1 X37.988 Y59.136 E8.42283
G1 X37.97 Y58.736 E8.44015
G1 X37.97 Y38.736 E9.30491
G1 X38.01 Y38.143 E9.33061
G1 X38.129 Y37.561 E9.35629
G1 X38.325 Y37 E9.38199
G1 X38.595 Y36.47 E9.40771
G1 X38.933 Y35.982 E9.43337
G1 X39.334 Y35.543 E9.45908
G0 F2160 X39.448 Y36.175
G1 F1200 X39.844 Y35.782 E9.48321
G1 X40.292 Y35.448 E9.50737
G1 X40.783 Y35.183 E9.53149
G1 X41.307 Y34.99 E9.55564
G1 X41.853 Y34.873 E9.57978
G1 X42.39 Y34.836 E9.60305
G1 X62.39 Y34.836 E10.46782
G1 X62.947 Y34.876 E10.49196
G1 X63.492 Y34.995 E10.51608
G1 X64.015 Y35.191 E10.54023
G1 X64.504 Y35.459 E10.56434
G1 X64.951 Y35.794 E10.5885
G1 X65.344 Y36.19 E10.61262
G1 X65.678 Y36.638 E10.63678
G1 X65.943 Y37.129 E10.66091
G1 X66.136 Y37.653 E10.68505
G1 X66.253 Y38.199 E10.70919
G1 X66.29 Y38.736 E10.73247
G1 X66.29 Y58.736 E11.59723
G1 X66.25 Y59.293 E11.62138
G1 X66.131 Y59.838 E11.6455
G1 X65.935 Y60.361 E11.66965
G1 X65.667 Y60.85 E11.69376
G1 X65.332 Y61.297 E11.71791
G1 X64.936 Y61.69 E11.74203
G1 X64.488 Y62.024 E11.7662
G1 X63.997 Y62.289 E11.79032
G1 X63.473 Y62.482 E11.81446
G1 X62.927 Y62.599 E11.83861
G1 X62.39 Y62.636 E11.86188
G1 X42.39 Y62.636 E12.72665
G1 X41.833 Y62.596 E12.75079
G1 X41.288 Y62.477 E12.77491
G1 X40.765 Y62.281 E12.79906
G1 X40.276 Y62.013 E12.82317
G1 X39.829 Y61.678 E12.84732
G1 X39.436 Y61.282 E12.87145
G1 X39.102 Y60.834 E12.89561
G1 X38.837 Y60.343 E12.91973
G1 X38.644 Y59.819 E12.94388
G1 X38.527 Y59.273 E12.96802
G1 X38.49 Y58.736 E12.9913
G1 X38.49 Y38.736 E13.85606
G1 X38.53 Y38.179 E13.88021
G1 X38.649 Y37.634 E13.90433
G1 X38.845 Y37.111 E13.92848
G1 X39.113 Y36.622 E13.95259
G1 X39.448 Y36.175 E13.97674
G0 F2160 X39.962 Y36.384
G1 F1200 X40.351 Y36.04 E13.99919
G1 X40.789 Y35.759 E14.02169
G1 X41.264 Y35.549 E14.04415
G1 X41.765 Y35.414 E14.06658
G1 X42.39 Y35.356 E14.09372
G1 X62.39 Y35.356 E14.95849
G1 X62.908 Y35.396 E14.98095
G1 X63.414 Y35.515 E15.00343
G1 X63.896 Y35.71 E15.02591
G1 X64.342 Y35.976 E15.04836
G1 X64.742 Y36.308 E15.07084
G1 X65.086 Y36.697 E15.09329
G1 X65.367 Y37.135 E15.11579
G1 X65.577 Y37.61 E15.13825
G1 X65.712 Y38.111 E15.16068
G1 X65.77 Y38.736 E15.18782
G1 X65.77 Y58.736 E16.05259
G1 X65.73 Y59.254 E16.07505
G1 X65.611 Y59.76 E16.09753
G1 X65.416 Y60.242 E16.12001
G1 X65.15 Y60.688 E16.14246
G1 X64.818 Y61.088 E16.16494
G1 X64.429 Y61.432 E16.18739
G1 X63.991 Y61.713 E16.20989
G1 X63.516 Y61.923 E16.23235
G1 X63.015 Y62.058 E16.25478
G1 X62.39 Y62.116 E16.28192
G1 X42.39 Y62.116 E17.14668
G1 X41.872 Y62.076 E17.16915
G1 X41.366 Y61.957 E17.19162
G1 X40.884 Y61.762 E17.21411
G1 X40.438 Y61.496 E17.23656
G1 X40.038 Y61.164 E17.25904
G1 X39.694 Y60.775 E17.28149
G1 X39.413 Y60.337 E17.30399
G1 X39.203 Y59.862 E17.32645
G1 X39.068 Y59.361 E17.34888
G1 X39.01 Y58.736 E17.37602
G1 X39.01 Y38.736 E18.24078
G1 X39.05 Y38.218 E18.26325
G1 X39.169 Y37.712 E18.28572
G1 X39.364 Y37.23 E18.30821
G1 X39.63 Y36.784 E18.33066
G1 X39.962 Y36.384 E18.35314
G0 F2160 X40.147 Y36.962
G1 F1200 X40.854 Y36.324 E18.39431
G1 X41.731 Y35.953 E18.43548
G1 X42.39 Y35.876 E18.46417
G1 X62.39 Y35.876 E19.32894
G1 X63.329 Y36.035 E19.37011
G1 X64.164 Y36.493 E19.41129
G1 X64.802 Y37.2 E19.45247
G1 X65.173 Y38.077 E19.49364
G1 X65.25 Y38.736 E19.52233
G1 X65.25 Y58.736 E20.38709
G1 X65.091 Y59.675 E20.42827
G1 X64.633 Y60.51 E20.46945
G1 X63.926 Y61.148 E20.51063
G1 X63.049 Y61.519 E20.5518
G1 X62.39 Y61.596 E20.58049
G1 X42.39 Y61.596 E21.44525
G1 X41.451 Y61.437 E21.48643
G1 X40.616 Y60.979 E21.52761
G1 X39.978 Y60.272 E21.56878
G1 X39.607 Y59.395 E21.60996
G1 X39.53 Y58.736 E21.63865
G1 X39.53 Y38.736 E22.50341
G1 X39.689 Y37.797 E22.54459
G1 X40.147 Y36.962 E22.58577
G0 F2160 X40.662 Y37.158
G1 F1200 X41.349 Y36.64 E22.62297
G1 X41.752 Y36.485 E22.64164
G1 X42.39 Y36.396 E22.66949
G1 X62.39 Y36.396 E23.53425
G1 X63.236 Y36.554 E23.57147
G1 X63.968 Y37.008 E23.60871
G1 X64.486 Y37.695 E23.64591
G1 X64.641 Y38.098 E23.66458
G1 X64.73 Y38.736 E23.69243
G1 X64.73 Y58.736 E24.5572
G1 X64.572 Y59.582 E24.59441
G1 X64.118 Y60.314 E24.63165
G1 X63.431 Y60.832 E24.66886
G1 X63.028 Y60.987 E24.68753
G1 X62.39 Y61.076 E24.71538
G1 X42.39 Y61.076 E25.58014
G1 X41.544 Y60.918 E25.61735
G1 X40.812 Y60.464 E25.6546
G1 X40.294 Y59.777 E25.6918
G1 X40.139 Y59.374 E25.71047
G1 X40.05 Y58.736 E25.73832
G1 X40.05 Y38.736 E26.60309
G1 X40.208 Y37.89 E26.6403
G1 X40.662 Y37.158 E26.67754
G0 F2160 X41.174 Y37.382
G1 F1200 X41.831 Y37.004 E26.71031
G1 X42.39 Y36.916 E26.73478
G1 X62.39 Y36.916 E27.59955
G1 X63.131 Y37.074 E27.63231
G1 X63.744 Y37.52 E27.66508
G1 X64.122 Y38.177 E27.69786
G1 X64.21 Y38.736 E27.72233
G1 X64.21 Y58.736 E28.58709
G1 X64.052 Y59.477 E28.61985
G1 X63.606 Y60.09 E28.65263
G1 X62.949 Y60.468 E28.6854
G1 X62.39 Y60.556 E28.70987
G1 X42.39 Y60.556 E29.57463
G1 X41.649 Y60.398 E29.60739
G1 X41.036 Y59.952 E29.64017
G1 X40.658 Y59.295 E29.67294
G1 X40.57 Y58.736 E29.69741
G1 X40.57 Y38.736 E30.56217
G1 X40.728 Y37.995 E30.59493
G1 X41.174 Y37.382 E30.62771
G0 F2160 X41.68 Y37.647
G1 F1200 X41.969 Y37.506 E30.64162
G1 X42.39 Y37.436 E30.66007
G1 X62.39 Y37.436 E31.52483
G1 X63.009 Y37.593 E31.55244
G1 X63.479 Y38.026 E31.58008
G1 X63.62 Y38.315 E31.59398
G1 X63.69 Y38.736 E31.61243
G1 X63.69 Y58.736 E32.4772
G1 X63.533 Y59.355 E32.50481
G1 X63.1 Y59.825 E32.53244
G1 X62.811 Y59.966 E32.54634
G1 X62.39 Y60.036 E32.5648
G1 X42.39 Y60.036 E33.42956
G1 X41.771 Y59.879 E33.45717
G1 X41.301 Y59.446 E33.4848
G1 X41.16 Y59.157 E33.49871
G1 X41.09 Y58.736 E33.51716
G1 X41.09 Y38.736 E34.38192
G1 X41.247 Y38.117 E34.40954
G1 X41.68 Y37.647 E34.43717
G0 F2160 X41.765 Y38.269
G1 F1200 X42.168 Y37.988 E34.45841
G1 X42.39 Y37.956 E34.46811
G1 X62.39 Y37.956 E35.33287
G1 X62.857 Y38.111 E35.35415
G1 X63.138 Y38.514 E35.37539
G1 X63.17 Y38.736 E35.38509
G1 X63.17 Y58.736 E36.24985
G1 X63.015 Y59.203 E36.27113
G1 X62.612 Y59.484 E36.29237
G1 X62.39 Y59.516 E36.30207
G1 X42.39 Y59.516 E37.16683
G1 X41.923 Y59.361 E37.18811
G1 X41.642 Y58.958 E37.20935
G1 X41.61 Y58.736 E37.21905
G1 X41.61 Y38.736 E38.08381
G1 X41.765 Y38.269 E38.10509
G0 F2160 X42.275 Y38.503
G1 F1200 X42.39 Y38.476 E38.11019
G1 X62.39 Y38.476 E38.97496
G1 X62.623 Y38.621 E38.98682
G1 X62.65 Y38.736 E38.99193
G1 X62.65 Y58.736 E39.85669
G1 X62.505 Y58.969 E39.86856
G1 X62.39 Y58.996 E39.87367
G1 X42.39 Y58.996 E40.73843
G1 X42.157 Y58.851 E40.7503
G1 X42.13 Y58.736 E40.7554
G1 X42.13 Y38.736 E41.62017
G1 X42.275 Y38.503 E41.63203
G1 F1800 E38.63203
G1 F1800 Z0.275
;MESH:xyzCalibration_cube.stl
G0 F2160 X62.13 Y58.476 Z0.275
;TYPE:WALL-OUTER
M900 K0.900000 T0 ;added by LinearAdvanceSettingPlugin
G1 F1800 Z0.2
G1 F1800 E41.63203
G1 F1200 X42.65 Y58.476 E42.47431
G1 X42.65 Y38.996 E43.31659
G1 X62.13 Y38.996 E44.15887
G1 X62.13 Y58.476 E45.00115
G0 F2160 X61.73 Y58.476
G0 X61.558 Y57.904
G0 X61.61 Y57.956
;TYPE:WALL-INNER
G1 F1200 X43.17 Y57.956 E45.79846
G1 X43.17 Y39.516 E46.59578
G1 X61.61 Y39.516 E47.39309
G1 X61.61 Y57.956 E48.1904
G0 F2160 X61.09 Y57.436
G1 F1200 X43.69 Y57.436 E48.94274
G1 X43.69 Y40.036 E49.69509
G1 X61.09 Y40.036 E50.44743
G1 X61.09 Y57.436 E51.19978
G1 F1800 E48.19978
G1 F1800 Z0.275
G0 F2160 X52.77 Y49.116 Z0.275
;TYPE:SKIN
G1 F1800 Z0.2
G1 F1800 E51.19978
G1 F1200 X52.01 Y49.116 E51.23264
G1 X52.01 Y48.356 E51.2655
G1 X52.77 Y48.356 E51.29836
G1 X52.77 Y49.116 E51.33122
G0 F2160 X53.29 Y49.636
G1 F1200 X51.49 Y49.636 E51.40905
G1 X51.49 Y47.836 E51.48688
G1 X53.29 Y47.836 E51.56471
G1 X53.29 Y49.636 E51.64254
G0 F2160 X53.81 Y50.156
G1 F1200 X50.97 Y50.156 E51.76533
G1 X50.97 Y47.316 E51.88813
G1 X53.81 Y47.316 E52.01093
G1 X53.81 Y50.156 E52.13372
G0 F2160 X54.33 Y50.676
G1 F1200 X50.45 Y50.676 E52.30149
G1 X50.45 Y46.796 E52.46925
G1 X54.33 Y46.796 E52.63701
G1 X54.33 Y50.676 E52.80478
G0 F2160 X54.85 Y51.196
G1 F1200 X49.93 Y51.196 E53.01751
G1 X49.93 Y46.276 E53.23024
G1 X54.85 Y46.276 E53.44297
G1 X54.85 Y51.196 E53.65571
G0 F2160 X55.37 Y51.716
G1 F1200 X49.41 Y51.716 E53.91341
G1 X49.41 Y45.756 E54.17111
G1 X55.37 Y45.756 E54.4288
G1 X55.37 Y51.716 E54.6865
G0 F2160 X55.89 Y52.236
G1 F1200 X48.89 Y52.236 E54.98917
G1 X48.89 Y45.236 E55.29184
G1 X55.89 Y45.236 E55.59451
G1 X55.89 Y52.236 E55.89717
G0 F2160 X56.41 Y52.756
G1 F1200 X48.37 Y52.756 E56.24481
G1 X48.37 Y44.716 E56.59244
G1 X56.41 Y44.716 E56.94008
G1 X56.41 Y52.756 E57.28771
G0 F2160 X56.93 Y53.276
G1 F1200 X47.85 Y53.276 E57.68032
G1 X47.85 Y44.196 E58.07292
G1 X56.93 Y44.196 E58.46552
G1 X56.93 Y53.276 E58.85812
G0 F2160 X57.45 Y53.796
G1 F1200 X47.33 Y53.796 E59.29569
G1 X47.33 Y43.676 E59.73326
G1 X57.45 Y43.676 E60.17083
G1 X57.45 Y53.796 E60.6084
G0 F2160 X57.97 Y54.316
G1 F1200 X46.81 Y54.316 E61.09094
G1 X46.81 Y43.156 E61.57348
G1 X57.97 Y43.156 E62.05602
G1 X57.97 Y54.316 E62.53856
G0 F2160 X58.49 Y54.836
G1 F1200 X46.29 Y54.836 E63.06606
G1 X46.29 Y42.636 E63.59357
G1 X58.49 Y42.636 E64.12107
G1 X58.49 Y54.836 E64.64858
G0 F2160 X59.01 Y55.356
G1 F1200 X45.77 Y55.356 E65.22105
G1 X45.77 Y42.116 E65.79353
G1 X59.01 Y42.116 E66.366
G1 X59.01 Y55.356 E66.93847
G0 F2160 X59.53 Y55.876
G1 F1200 X45.25 Y55.876 E67.55591
G1 X45.25 Y41.596 E68.17336
G1 X59.53 Y41.596 E68.7908
G1 X59.53 Y55.876 E69.40824
G0 F2160 X60.05 Y56.396
G1 F1200 X44.73 Y56.396 E70.07065
G1 X44.73 Y41.076 E70.73306
G1 X60.05 Y41.076 E71.39546
G1 X60.05 Y56.396 E72.05787
G0 F2160 X60.57 Y56.916
G1 F1200 X44.21 Y56.916 E72.76525
G1 X44.21 Y40.556 E73.47263
G1 X60.57 Y40.556 E74.18
G1 X60.57 Y56.916 E74.88738
G1 F1800 E71.88738
G1 F1800 Z0.275
G0 F2160 X52.494 Y48.817 Z0.275
M104 S200
;TYPE:SKIN
G1 F1800 Z0.2
G1 F1800 E74.88738
G1 F1200 X52.308 Y48.631 E74.89175
G1 F1800 E71.89175
G1 F1800 Z0.275
;MESH:NONMESH
G0 F2160 X60.99 Y57.336 Z0.275
;TIME_ELAPSED:92.089136
;LAYER:1
M106 S178.5
;MESH:xyzCalibration_cube.stl
G0 F5400 X60.99 Y57.336 Z0.475
;TYPE:WALL-INNER
G1 F1800 Z0.4
G1 F1800 E74.89175
G1 F3000 X43.79 Y57.336 E75.46383
G1 X43.79 Y40.136 E76.0359
G1 X60.99 Y40.136 E76.60798
G1 X60.99 Y57.336 E77.18005
G0 F5400 X61.39 Y57.736
G1 F3000 X43.39 Y57.736 E77.77873
G1 X43.39 Y39.736 E78.37742
G1 X61.39 Y39.736 E78.9761
G1 X61.39 Y57.736 E79.57478
G0 F5400 X61.79 Y58.136
G1 F3000 X42.99 Y58.136 E80.20007
G1 X42.99 Y39.336 E80.82536
G1 X61.79 Y39.336 E81.45065
G1 X61.79 Y58.136 E82.07594
G0 F5400 X62.19 Y58.536
;TYPE:WALL-OUTER
G1 F1800 X42.59 Y58.536 E82.72784
G1 X42.59 Y38.936 E83.37974
G1 X62.19 Y38.936 E84.03164
G1 X62.19 Y58.536 E84.68354
G0 F5400 X61.79 Y58.536
G0 X61.75 Y58.096
G1 F1800 E81.68354
G1 F1800 Z0.475
G0 F5400 X52.59 Y48.936 Z0.475
;TYPE:SKIN
G1 F1800 Z0.4
G1 F1800 E84.68354
G1 X52.19 Y48.936 E84.69684
G1 X52.19 Y48.536 E84.71015
G1 X52.59 Y48.536 E84.72345
G1 X52.59 Y48.936 E84.73675
G0 F5400 X52.99 Y49.336
G1 F1800 X51.79 Y49.336 E84.77667
G1 X51.79 Y48.136 E84.81658
G1 X52.99 Y48.136 E84.85649
G1 X52.99 Y49.336 E84.8964
G0 F5400 X53.39 Y49.736
G1 F1800 X51.39 Y49.736 E84.96292
G1 X51.39 Y47.736 E85.02944
G1 X53.39 Y47.736 E85.09596
G1 X53.39 Y49.736 E85.16248
G0 F5400 X53.79 Y50.136
G1 F1800 X50.99 Y50.136 E85.25561
G1 X50.99 Y47.336 E85.34874
G1 X53.79 Y47.336 E85.44187
G1 X53.79 Y50.136 E85.535
G0 F5400 X54.19 Y50.536
