;FLAVOR:Marlin
;TIME:360
;Filament used: 0.26204m
;Layer height: 0.2
;MINX:-18.9
;MINY:-80.9
;MINZ:0.3
;MAXX:18.9
;MAXY:-45.1
;MAXZ:1.575
;Generated with Cura_SteamEngine 4.12.1
M82 ;absolute extrusion mode
G21                                        ; metric values 
G90                                        ; absolute positioning 
M82                                        ; set extruder to absolute mode 
M107                                       ; start with the fan off 
M140 S60           ; Start heating the bed 
G4 S60                                     ; wait 1 minute 
M104 S210         ; start heating the hot end 
M190 S60           ; wait for bed 
M109 S210         ; wait for hotend 
M300 S1000 P500                            ; BEEP heating done 
G28 X0 Y10 Z0                              ; move X/Y to min endstops 
M420 S1                                    ; Enable leveling 
M420 Z2.0                                  ; Set leveling fading height to 2 mm 
G0 Z0.15                                   ; lift nozzle a bit 
G92 E0                                     ; zero the extruded length 
G1 X50 E25 F500                            ; Extrude 25mm of filament in a 5cm line. 
G92 E0                                     ; zero the extruded length again 
G1 E-2 F500                                ; Retract a little 
G1 X120 F4000                              ; Quickly wipe away from the filament line`
G92 E0
G92 E0
G1 F1500 E-6
;LAYER_COUNT:7
;LAYER:0
M106 S76.5
M205 X10 Y10
G1 F600 Z0.375
G0 F6000 X10.04 Y-45.1 Z0.375
M205 X8 Y8
;TYPE:SKIRT
G1 F600 Z0.3
G1 F1500 E0
G1 F1200 X-10.287 Y-45.101 E1.01412
G1 X-10.967 Y-45.111 E1.04805
G1 X-11.681 Y-45.161 E1.08376
G1 X-12.42 Y-45.3 E1.12127
G1 X-12.99 Y-45.442 E1.15058
G1 X-13.431 Y-45.563 E1.17339
G1 X-14.107 Y-45.795 E1.20905
G1 X-14.754 Y-46.101 E1.24476
G1 X-15.362 Y-46.478 E1.28045
G1 X-16.093 Y-47.073 E1.32747
G1 X-16.488 Y-47.455 E1.35489
G1 X-16.863 Y-47.841 E1.38174
G1 X-17.332 Y-48.381 E1.41742
G1 X-17.738 Y-48.97 E1.45311
G1 X-18.167 Y-49.807 E1.50003
G1 X-18.178 Y-49.833 E1.50144
G1 X-18.417 Y-50.498 E1.5367
G1 X-18.553 Y-50.974 E1.56139
G1 X-18.688 Y-51.507 E1.58882
G1 X-18.825 Y-52.209 E1.62451
G1 X-18.883 Y-52.962 E1.66219
G1 X-18.9 Y-53.96 E1.71198
G1 X-18.899 Y-72.287 E2.62632
G1 X-18.889 Y-72.968 E2.6603
G1 X-18.839 Y-73.681 E2.69596
G1 X-18.7 Y-74.424 E2.73367
G1 X-18.558 Y-74.993 E2.76293
G1 X-18.435 Y-75.436 E2.78587
G1 X-18.203 Y-76.112 E2.82152
G1 X-17.896 Y-76.758 E2.85721
G1 X-17.519 Y-77.366 E2.8929
G1 X-16.949 Y-78.068 E2.93801
G1 X-16.54 Y-78.493 E2.96744
G1 X-16.149 Y-78.872 E2.99461
G1 X-15.609 Y-79.341 E3.03029
G1 X-15.019 Y-79.746 E3.06599
G1 X-14.388 Y-80.083 E3.10168
G1 X-13.541 Y-80.405 E3.14689
G1 X-13.022 Y-80.554 E3.17383
G1 X-12.487 Y-80.689 E3.20136
G1 X-11.785 Y-80.825 E3.23703
G1 X-11.037 Y-80.883 E3.27446
G1 X-10.04 Y-80.9 E3.32421
G1 X10.193 Y-80.9 E4.33364
G1 X10.968 Y-80.889 E4.37231
G1 X11.681 Y-80.839 E4.40796
G1 X12.424 Y-80.7 E4.44568
G1 X12.993 Y-80.558 E4.47493
G1 X13.448 Y-80.432 E4.49849
G1 X14.124 Y-80.198 E4.53418
G1 X14.769 Y-79.89 E4.56984
G1 X15.377 Y-79.512 E4.60555
G1 X16.093 Y-78.926 E4.65171
G1 X16.494 Y-78.539 E4.67952
G1 X16.872 Y-78.149 E4.70661
G1 X17.34 Y-77.609 E4.74227
G1 X17.745 Y-77.019 E4.77797
G1 X18.082 Y-76.388 E4.81366
G1 X18.397 Y-75.565 E4.85762
G1 X18.555 Y-75.019 E4.88598
G1 X18.69 Y-74.483 E4.91356
G1 X18.826 Y-73.781 E4.94923
G1 X18.883 Y-73.036 E4.98651
G1 X18.9 Y-72.04 E5.0362
G1 X18.899 Y-53.713 E5.95054
G1 X18.889 Y-53.032 E5.98452
G1 X18.839 Y-52.319 E6.02018
G1 X18.702 Y-51.584 E6.05748
G1 X18.565 Y-51.032 E6.08586
G1 X18.438 Y-50.571 E6.10971
G1 X18.206 Y-49.895 E6.14537
G1 X17.899 Y-49.248 E6.1811
G1 X17.523 Y-48.64 E6.21676
G1 X16.948 Y-47.932 E6.26227
G1 X16.545 Y-47.512 E6.29131
G1 X16.155 Y-47.133 E6.31844
G1 X15.615 Y-46.664 E6.35412
G1 X15.026 Y-46.258 E6.38981
G1 X14.396 Y-45.921 E6.42546
G1 X13.541 Y-45.595 E6.47111
G1 X13.022 Y-45.446 E6.49805
G1 X12.487 Y-45.311 E6.52557
G1 X11.785 Y-45.175 E6.56125
G1 X11.037 Y-45.117 E6.59868
G1 X10.04 Y-45.1 E6.64843
M205 X10 Y10
G0 F6000 X10.04 Y-45.5
M205 X8 Y8
G1 F1200 X-10.281 Y-45.501 E7.66224
G1 X-10.961 Y-45.511 E7.69617
G1 X-11.652 Y-45.561 E7.73074
G1 X-12.323 Y-45.688 E7.76481
G1 X-12.893 Y-45.83 E7.79411
G1 X-13.322 Y-45.948 E7.81631
G1 X-13.977 Y-46.174 E7.85088
G1 X-14.601 Y-46.474 E7.88542
G1 X-15.187 Y-46.844 E7.92
G1 X-15.818 Y-47.364 E7.96079
G1 X-16.202 Y-47.734 E7.9874
G1 X-16.577 Y-48.12 E8.01425
G1 X-17.03 Y-48.644 E8.0488
G1 X-17.419 Y-49.216 E8.08331
G1 X-17.799 Y-49.963 E8.12513
G1 X-17.81 Y-49.989 E8.12654
G1 X-18.034 Y-50.613 E8.15961
G1 X-18.165 Y-51.072 E8.18343
G1 X-18.3 Y-51.605 E8.21086
G1 X-18.431 Y-52.285 E8.24541
G1 X-18.483 Y-52.969 E8.27963
G1 X-18.5 Y-53.96 E8.32908
G1 X-18.499 Y-72.281 E9.24312
G1 X-18.489 Y-72.962 E9.2771
G1 X-18.439 Y-73.653 E9.31166
G1 X-18.311 Y-74.327 E9.34589
G1 X-18.169 Y-74.896 E9.37514
G1 X-18.05 Y-75.327 E9.39745
G1 X-17.824 Y-75.982 E9.43202
G1 X-17.523 Y-76.605 E9.46654
G1 X-17.153 Y-77.191 E9.50112
G1 X-16.657 Y-77.795 E9.54011
G1 X-16.262 Y-78.206 E9.56855
G1 X-15.871 Y-78.585 E9.59571
G1 X-15.347 Y-79.038 E9.63027
G1 X-14.774 Y-79.427 E9.66482
G1 X-14.16 Y-79.747 E9.69937
G1 X-13.426 Y-80.022 E9.73847
G1 X-12.924 Y-80.167 E9.76454
G1 X-12.389 Y-80.302 E9.79207
G1 X-11.709 Y-80.432 E9.82661
G1 X-11.03 Y-80.483 E9.86058
G1 X-10.04 Y-80.5 E9.90998
G1 X10.193 Y-80.5 E10.91941
G1 X10.962 Y-80.489 E10.95778
G1 X11.653 Y-80.439 E10.99234
G1 X12.327 Y-80.311 E11.02657
G1 X12.896 Y-80.169 E11.05582
G1 X13.338 Y-80.047 E11.0787
G1 X13.992 Y-79.819 E11.11326
G1 X14.616 Y-79.518 E11.14782
G1 X15.2 Y-79.146 E11.18236
G1 X15.818 Y-78.636 E11.22234
G1 X16.206 Y-78.261 E11.24926
G1 X16.584 Y-77.871 E11.27636
G1 X17.037 Y-77.347 E11.31091
G1 X17.426 Y-76.774 E11.34547
G1 X17.746 Y-76.16 E11.38001
G1 X18.014 Y-75.448 E11.41796
G1 X18.167 Y-74.921 E11.44534
G1 X18.302 Y-74.385 E11.47292
G1 X18.432 Y-73.705 E11.50746
G1 X18.483 Y-73.029 E11.54128
G1 X18.5 Y-72.04 E11.59063
G1 X18.499 Y-53.719 E12.50467
G1 X18.489 Y-53.038 E12.53865
G1 X18.439 Y-52.347 E12.57321
G1 X18.313 Y-51.681 E12.60703
G1 X18.176 Y-51.129 E12.6354
G1 X18.053 Y-50.68 E12.65863
G1 X17.827 Y-50.025 E12.6932
G1 X17.527 Y-49.401 E12.72774
G1 X17.157 Y-48.816 E12.76227
G1 X16.657 Y-48.206 E12.80162
G1 X16.267 Y-47.799 E12.82974
G1 X15.877 Y-47.42 E12.85688
G1 X15.353 Y-46.967 E12.89143
G1 X14.78 Y-46.577 E12.92601
G1 X14.167 Y-46.256 E12.96054
G1 X13.426 Y-45.978 E13.00002
G1 X12.924 Y-45.833 E13.02609
G1 X12.389 Y-45.698 E13.05362
G1 X11.709 Y-45.568 E13.08816
G1 X11.03 Y-45.517 E13.12213
G1 X10.04 Y-45.5 E13.17153
M205 X10 Y10
G0 F6000 X10.04 Y-45.9
M205 X8 Y8
G1 F1200 X-10.275 Y-45.901 E14.18505
G1 X-10.955 Y-45.911 E14.21897
G1 X-11.623 Y-45.96 E14.25239
G1 X-12.227 Y-46.076 E14.28307
G1 X-12.797 Y-46.218 E14.31238
G1 X-13.214 Y-46.333 E14.33396
G1 X-13.846 Y-46.552 E14.36733
G1 X-14.447 Y-46.846 E14.40071
G1 X-15.009 Y-47.209 E14.43409
G1 X-15.543 Y-47.655 E14.4688
G1 X-15.915 Y-48.013 E14.49456
G1 X-16.29 Y-48.399 E14.52141
G1 X-16.726 Y-48.906 E14.55477
G1 X-17.099 Y-49.461 E14.58813
G1 X-17.43 Y-50.119 E14.62488
G1 X-17.441 Y-50.145 E14.62629
G1 X-17.651 Y-50.727 E14.65715
G1 X-17.778 Y-51.17 E14.68015
G1 X-17.913 Y-51.703 E14.70758
G1 X-18.038 Y-52.36 E14.74094
G1 X-18.083 Y-52.976 E14.77176
G1 X-18.1 Y-53.96 E14.82086
G1 X-18.099 Y-72.275 E15.7346
G1 X-18.089 Y-72.956 E15.76857
G1 X-18.04 Y-73.623 E15.80194
G1 X-17.923 Y-74.23 E15.83278
G1 X-17.781 Y-74.799 E15.86204
G1 X-17.666 Y-75.218 E15.88372
G1 X-17.445 Y-75.85 E15.91712
G1 X-17.151 Y-76.451 E15.9505
G1 X-16.788 Y-77.013 E15.98388
G1 X-16.365 Y-77.521 E16.01686
G1 X-15.984 Y-77.919 E16.04435
G1 X-15.593 Y-78.298 E16.07151
G1 X-15.085 Y-78.734 E16.10491
G1 X-14.53 Y-79.107 E16.13827
G1 X-13.933 Y-79.41 E16.17167
G1 X-13.31 Y-79.639 E16.20479
G1 X-12.826 Y-79.779 E16.22993
G1 X-12.291 Y-79.914 E16.25745
G1 X-11.634 Y-80.038 E16.29081
G1 X-11.023 Y-80.083 E16.32138
G1 X-10.04 Y-80.1 E16.37043
G1 X10.193 Y-80.1 E17.37985
G1 X10.956 Y-80.089 E17.41792
G1 X11.623 Y-80.04 E17.45129
G1 X12.23 Y-79.923 E17.48213
G1 X12.799 Y-79.781 E17.51139
G1 X13.229 Y-79.662 E17.53365
G1 X13.86 Y-79.441 E17.567
G1 X14.461 Y-79.146 E17.60041
G1 X15.022 Y-78.781 E17.6338
G1 X15.543 Y-78.345 E17.66769
G1 X15.919 Y-77.982 E17.69376
G1 X16.297 Y-77.592 E17.72086
G1 X16.733 Y-77.085 E17.75422
G1 X17.106 Y-76.529 E17.78762
G1 X17.409 Y-75.933 E17.82098
G1 X17.632 Y-75.331 E17.85301
G1 X17.779 Y-74.824 E17.87935
G1 X17.914 Y-74.288 E17.90692
G1 X18.039 Y-73.63 E17.94034
G1 X18.083 Y-73.022 E17.97075
G1 X18.1 Y-72.04 E18.01975
G1 X18.099 Y-53.725 E18.93349
G1 X18.089 Y-53.044 E18.96747
G1 X18.04 Y-52.377 E19.00083
G1 X17.925 Y-51.777 E19.03131
G1 X17.788 Y-51.225 E19.05969
G1 X17.668 Y-50.788 E19.0823
G1 X17.448 Y-50.156 E19.11568
G1 X17.155 Y-49.555 E19.14904
G1 X16.792 Y-48.993 E19.18242
G1 X16.365 Y-48.479 E19.21576
G1 X15.988 Y-48.086 E19.24293
G1 X15.598 Y-47.707 E19.27006
G1 X15.091 Y-47.27 E19.30345
G1 X14.536 Y-46.897 E19.33681
G1 X13.94 Y-46.593 E19.37019
G1 X13.31 Y-46.361 E19.40369
G1 X12.826 Y-46.221 E19.42882
G1 X12.291 Y-46.086 E19.45635
G1 X11.634 Y-45.962 E19.48971
G1 X11.023 Y-45.917 E19.52027
G1 X10.04 Y-45.9 E19.56932
M205 X10 Y10
G0 F6000 X10.04 Y-46.3
M205 X8 Y8
G1 F1200 X-10.269 Y-46.301 E20.58254
G1 X-10.949 Y-46.311 E20.61647
G1 X-11.592 Y-46.36 E20.64864
G1 X-12.13 Y-46.464 E20.67598
G1 X-12.7 Y-46.606 E20.70529
G1 X-13.105 Y-46.718 E20.72625
G1 X-13.714 Y-46.931 E20.75844
G1 X-14.291 Y-47.217 E20.79057
G1 X-14.829 Y-47.573 E20.82275
G1 X-15.268 Y-47.945 E20.85146
G1 X-15.628 Y-48.292 E20.87641
G1 X-16.003 Y-48.678 E20.90326
G1 X-16.422 Y-49.167 E20.93538
G1 X-16.778 Y-49.704 E20.96753
G1 X-17.062 Y-50.275 E20.99934
G1 X-17.073 Y-50.301 E21.00075
G1 X-17.267 Y-50.841 E21.02938
G1 X-17.39 Y-51.268 E21.05155
G1 X-17.525 Y-51.801 E21.07898
G1 X-17.644 Y-52.435 E21.11116
G1 X-17.683 Y-52.984 E21.13862
G1 X-17.7 Y-53.96 E21.18732
G1 X-17.699 Y-72.269 E22.10076
G1 X-17.689 Y-72.95 E22.13474
G1 X-17.64 Y-73.593 E22.16691
G1 X-17.535 Y-74.133 E22.19436
G1 X-17.393 Y-74.702 E22.22361
G1 X-17.281 Y-75.109 E22.24468
G1 X-17.067 Y-75.718 E22.27688
G1 X-16.78 Y-76.295 E22.30903
G1 X-16.423 Y-76.832 E22.3412
G1 X-16.073 Y-77.248 E22.36832
G1 X-15.705 Y-77.632 E22.39486
G1 X-15.314 Y-78.011 E22.42203
G1 X-14.824 Y-78.43 E22.45419
G1 X-14.286 Y-78.785 E22.48635
G1 X-13.709 Y-79.071 E22.51848
G1 X-13.195 Y-79.256 E22.54573
G1 X-12.728 Y-79.391 E22.56998
G1 X-12.193 Y-79.526 E22.59751
G1 X-11.56 Y-79.645 E22.62965
G1 X-11.015 Y-79.683 E22.6569
G1 X-10.04 Y-79.7 E22.70555
G1 X10.193 Y-79.7 E23.71498
G1 X10.95 Y-79.689 E23.75275
G1 X11.593 Y-79.64 E23.78492
G1 X12.133 Y-79.535 E23.81237
G1 X12.702 Y-79.393 E23.84163
G1 X13.119 Y-79.277 E23.86322
G1 X13.727 Y-79.063 E23.89538
G1 X14.304 Y-78.775 E23.92755
G1 X14.841 Y-78.417 E23.95975
G1 X15.269 Y-78.054 E23.98775
G1 X15.632 Y-77.704 E24.01291
G1 X16.01 Y-77.314 E24.04
G1 X16.429 Y-76.824 E24.07217
G1 X16.784 Y-76.286 E24.10433
G1 X17.07 Y-75.709 E24.13646
G1 X17.249 Y-75.214 E24.16272
G1 X17.392 Y-74.726 E24.18809
G1 X17.527 Y-74.19 E24.21566
G1 X17.645 Y-73.556 E24.24784
G1 X17.683 Y-73.015 E24.27489
G1 X17.7 Y-72.04 E24.32354
G1 X17.699 Y-53.731 E25.23698
G1 X17.689 Y-53.05 E25.27096
G1 X17.64 Y-52.407 E25.30314
G1 X17.537 Y-51.873 E25.33027
G1 X17.4 Y-51.321 E25.35864
G1 X17.283 Y-50.897 E25.38059
G1 X17.07 Y-50.288 E25.41277
G1 X16.783 Y-49.711 E25.44493
G1 X16.427 Y-49.174 E25.47707
G1 X16.073 Y-48.753 E25.50451
G1 X15.709 Y-48.373 E25.53076
G1 X15.319 Y-47.994 E25.5579
G1 X14.83 Y-47.574 E25.59005
G1 X14.292 Y-47.218 E25.62224
G1 X13.715 Y-46.931 E25.65439
G1 X13.195 Y-46.744 E25.68196
G1 X12.728 Y-46.609 E25.70621
G1 X12.193 Y-46.474 E25.73374
G1 X11.56 Y-46.355 E25.76587
G1 X11.015 Y-46.317 E25.79313
G1 X10.04 Y-46.3 E25.84178
M205 X10 Y10
G1 F1500 E19.84178
G1 F600 Z0.375
;MESH:????????????.stl
G0 F6000 X-7.765 Y-53.806 Z0.375
M205 X8 Y8
;TYPE:WALL-INNER
G1 F600 Z0.3
G1 F1500 E25.84178
G1 F1200 X-7.109 Y-53.747 E25.87464
G1 X5.95 Y-56.051 E26.53622
G1 X6.55 Y-56.327 E26.56917
G1 X7.005 Y-56.979 E26.60884
G1 X7.064 Y-57.635 E26.6417
G1 X4.76 Y-70.694 E27.30327
G1 X4.484 Y-71.294 E27.33622
G1 X3.832 Y-71.749 E27.37589
G1 X3.176 Y-71.808 E27.40875
G1 X-9.889 Y-69.505 E28.07061
G1 X-10.483 Y-69.225 E28.10338
G1 X-10.942 Y-68.576 E28.14303
G1 X-10.996 Y-67.916 E28.17607
G1 X-8.694 Y-54.856 E28.83768
G1 X-8.414 Y-54.259 E28.87058
G1 X-7.765 Y-53.806 E28.91007
M205 X10 Y10
G0 F6000 X-7.623 Y-54.195
M205 X8 Y8
G1 F1200 X-7.126 Y-54.15 E28.93496
G1 X5.83 Y-56.436 E29.59132
G1 X6.284 Y-56.645 E29.61626
G1 X6.616 Y-57.121 E29.64521
G1 X6.661 Y-57.618 E29.67011
G1 X4.375 Y-70.574 E30.32647
G1 X4.166 Y-71.028 E30.35141
G1 X3.69 Y-71.36 E30.38036
G1 X3.193 Y-71.405 E30.40526
G1 X-9.767 Y-69.12 E31.06181
G1 X-10.217 Y-68.908 E31.08662
G1 X-10.552 Y-68.434 E31.11558
G1 X-10.593 Y-67.935 E31.14056
G1 X-8.309 Y-54.978 E31.79695
G1 X-8.097 Y-54.526 E31.82186
G1 X-7.623 Y-54.195 E31.85071
M205 X10 Y10
G0 F6000 X-7.481 Y-54.584
M205 X8 Y8
;TYPE:WALL-OUTER
G1 F1200 X-7.143 Y-54.553 E31.86764
G1 X5.71 Y-56.821 E32.51878
G1 X6.018 Y-56.963 E32.53571
G1 X6.227 Y-57.263 E32.55395
G1 X6.258 Y-57.601 E32.57088
G1 X3.99 Y-70.454 E33.22203
G1 X3.848 Y-70.762 E33.23895
G1 X3.548 Y-70.971 E33.25719
G1 X3.21 Y-71.002 E33.27412
G1 X-9.645 Y-68.735 E33.92536
G1 X-9.951 Y-68.591 E33.94223
G1 X-10.162 Y-68.292 E33.96049
G1 X-10.19 Y-67.954 E33.97741
G1 X-7.924 Y-55.1 E34.62858
G1 X-7.78 Y-54.793 E34.6455
G1 X-7.481 Y-54.584 E34.6637
M205 X10 Y10
G0 F6000 X-7.282 Y-54.566
G0 X-7.323 Y-54.128
G1 F1500 E28.6637
G1 F600 Z0.375
G0 F6000 X7.359 Y-54.694 Z0.375
M205 X8 Y8
;TYPE:WALL-INNER
G1 F600 Z0.3
G1 F1500 E34.6637
G1 F1200 X8.831 Y-54.085 E34.74318
G1 X10.303 Y-54.694 E34.82265
G1 X10.913 Y-56.167 E34.90219
G1 X10.303 Y-57.639 E34.98169
G1 X8.831 Y-58.249 E35.06118
G1 X7.359 Y-57.639 E35.14068
G1 X7.074 Y-56.951 E35.15921
G1 X6.749 Y-56.167 E35.17758
G1 X7.359 Y-54.694 E35.25712
M205 X10 Y10
G0 F6000 X7.665 Y-55
M205 X8 Y8
G1 F1200 X8.831 Y-54.518 E35.32006
G1 X9.997 Y-55 E35.38301
G1 X10.48 Y-56.167 E35.44602
G1 X9.997 Y-57.333 E35.50899
G1 X8.831 Y-57.816 E35.57195
G1 X7.665 Y-57.333 E35.63492
G1 X7.182 Y-56.167 E35.69788
G1 X7.665 Y-55 E35.7609
M205 X10 Y10
G0 F6000 X7.971 Y-55.306
M205 X8 Y8
;TYPE:WALL-OUTER
G1 F1200 X8.831 Y-54.951 E35.80731
G1 X9.691 Y-55.306 E35.85373
G1 X10.047 Y-56.167 E35.90021
G1 X9.691 Y-57.027 E35.94665
G1 X8.831 Y-57.383 E35.99309
G1 X7.971 Y-57.027 E36.03952
G1 X7.615 Y-56.167 E36.08596
G1 X7.971 Y-55.306 E36.13244
M205 X10 Y10
G0 F6000 X8.155 Y-55.23
G0 X7.988 Y-54.825
G1 F1500 E30.13244
G1 F600 Z0.375
G0 F6000 X11.181 Y-52.609 Z0.375
M205 X8 Y8
;TYPE:WALL-INNER
G1 F600 Z0.3
G1 F1500 E36.13244
G1 F1200 X10.772 Y-52.5 E36.15356
G1 X-10.772 Y-52.5 E37.22839
G1 X-11.181 Y-52.609 E37.24951
G1 X-11.391 Y-52.819 E37.26433
G1 X-11.5 Y-53.228 E37.28544
G1 X-11.5 Y-72.772 E38.2605
G1 X-11.391 Y-73.181 E38.28161
G1 X-11.181 Y-73.391 E38.29643
G1 X-10.772 Y-73.5 E38.31755
G1 X10.772 Y-73.5 E39.39238
G1 X11.181 Y-73.391 E39.4135
G1 X11.391 Y-73.181 E39.42832
G1 X11.5 Y-72.772 E39.44943
G1 X11.5 Y-53.228 E40.42449
G1 X11.391 Y-52.819 E40.44561
G1 X11.181 Y-52.609 E40.46042
M205 X10 Y10
G0 F6000 X11.389 Y-52.251
M205 X8 Y8
G1 F1200 X10.823 Y-52.1 E40.48965
G1 X-10.823 Y-52.1 E41.56957
G1 X-11.389 Y-52.251 E41.5988
G1 X-11.749 Y-52.611 E41.6242
G1 X-11.9 Y-53.177 E41.65342
