;FLAVOR:Marlin
;TIME:866
;Filament used: 0.671969m
;Layer height: 0.2
;MINX:124.362
;MINY:116.65
;MINZ:0.2
;MAXX:175.638
;MAXY:183.35
;MAXZ:1.675
;Generated with Cura_SteamEngine 4.12.1
M82 ;absolute extrusion mode
G21                                        ; metric values 
G90                                        ; absolute positioning 
M82                                        ; set extruder to absolute mode 
M107                                       ; start with the fan off 
M140 S60           ; Start heating the bed 
G4 S60                                     ; wait 1 minute 
M104 S210         ; start heating the hot end 
M190 S60           ; wait for bed 
M109 S210         ; wait for hotend 
M300 S1000 P500                            ; BEEP heating done 
G28 X0 Y10 Z0                              ; move X/Y to min endstops 
M420 S1                                    ; Enable leveling 
M420 Z2.0                                  ; Set leveling fading height to 2 mm 
G0 Z0.15                                   ; lift nozzle a bit 
G92 E0                                     ; zero the extruded length 
G1 X50 E25 F500                            ; Extrude 25mm of filament in a 5cm line. 
G92 E0                                     ; zero the extruded length again 
G1 E-2 F500                                ; Retract a little 
G1 X120 F4000                              ; Quickly wipe away from the filament line`
G92 E0
G92 E0
G1 F1500 E-6
;LAYER_COUNT:8
;LAYER:0
M106 S76.5
M205 X10 Y10
G1 F600 Z0.275
G0 F6000 X126.524 Y120.305 Z0.275
M205 X8 Y8
;TYPE:SKIRT
G1 F600 Z0.2
G1 F1500 E0
G1 F1200 X126.91 Y119.9 E0.01861
G1 X127.44 Y119.37 E0.04354
G1 X127.921 Y118.903 E0.06584
G1 X128.461 Y118.434 E0.08962
G1 X129.05 Y118.029 E0.1134
G1 X129.681 Y117.692 E0.13719
G1 X130.537 Y117.366 E0.16766
G1 X131.051 Y117.214 E0.18549
G1 X131.744 Y117.03 E0.20933
G1 X132.402 Y116.863 E0.23191
G1 X133.104 Y116.726 E0.2557
G1 X133.866 Y116.667 E0.28112
G1 X134.903 Y116.65 E0.31562
G1 X165.293 Y116.65 E1.32639
G1 X166.07 Y116.661 E1.35224
G1 X166.783 Y116.711 E1.37601
G1 X167.522 Y116.849 E1.40101
G1 X168.492 Y117.092 E1.43427
G1 X168.743 Y117.159 E1.44291
G1 X169.372 Y117.338 E1.46467
G1 X170.048 Y117.572 E1.48846
G1 X170.693 Y117.88 E1.51223
G1 X171.301 Y118.258 E1.53604
G1 X172.013 Y118.84 E1.56663
G1 X172.395 Y119.205 E1.5842
G1 X172.924 Y119.734 E1.60908
G1 X173.4 Y120.225 E1.63183
G1 X173.869 Y120.766 E1.65564
G1 X174.274 Y121.355 E1.67942
G1 X174.61 Y121.986 E1.7032
G1 X174.932 Y122.832 E1.7333
G1 X175.084 Y123.346 E1.75113
G1 X175.269 Y124.036 E1.77489
G1 X175.445 Y124.734 E1.79883
G1 X175.581 Y125.436 E1.82262
G1 X175.637 Y126.149 E1.8464
G1 X175.626 Y126.774 E1.86719
G1 X175.568 Y129.523 E1.95865
G1 X175.585 Y132.164 E2.04649
G1 X175.617 Y133.086 E2.07717
G1 X175.638 Y134.045 E2.10908
G1 X175.625 Y134.718 E2.13146
G1 X175.568 Y137.423 E2.22145
G1 X175.585 Y140.064 E2.3093
G1 X175.617 Y140.986 E2.33998
G1 X175.638 Y141.945 E2.37188
G1 X175.625 Y142.618 E2.39427
G1 X175.568 Y145.323 E2.48426
G1 X175.585 Y147.964 E2.5721
G1 X175.617 Y148.886 E2.60279
G1 X175.638 Y149.845 E2.63469
G1 X175.625 Y150.518 E2.65708
G1 X175.568 Y153.223 E2.74707
G1 X175.585 Y155.864 E2.83491
G1 X175.617 Y156.786 E2.86559
G1 X175.638 Y157.745 E2.8975
G1 X175.625 Y158.418 E2.91989
G1 X175.568 Y161.123 E3.00987
G1 X175.585 Y163.764 E3.09772
G1 X175.617 Y164.686 E3.1284
G1 X175.638 Y165.645 E3.16031
G1 X175.625 Y166.318 E3.18269
G1 X175.568 Y169.023 E3.27268
G1 X175.585 Y171.664 E3.36052
G1 X175.618 Y172.588 E3.39128
G1 X175.638 Y173.515 E3.42212
G1 X175.613 Y174.23 E3.44591
G1 X175.454 Y175.18 E3.47795
G1 X175.193 Y176.242 E3.51432
G1 X175.136 Y176.458 E3.52175
G1 X174.965 Y177.062 E3.54263
G1 X174.732 Y177.739 E3.56644
G1 X174.425 Y178.385 E3.59023
G1 X174.048 Y178.992 E3.614
G1 X173.46 Y179.713 E3.64494
G1 X173.095 Y180.095 E3.66251
G1 X172.578 Y180.612 E3.68683
G1 X172.086 Y181.091 E3.70967
G1 X171.547 Y181.56 E3.73343
G1 X170.958 Y181.967 E3.75725
G1 X170.328 Y182.305 E3.78103
G1 X169.459 Y182.636 E3.81196
G1 X168.949 Y182.786 E3.82964
G1 X168.256 Y182.97 E3.85348
G1 X167.598 Y183.137 E3.87606
G1 X166.896 Y183.274 E3.89985
G1 X166.134 Y183.333 E3.92527
G1 X165.097 Y183.35 E3.95977
G1 X134.613 Y183.349 E4.97367
G1 X133.931 Y183.339 E4.99636
G1 X133.218 Y183.289 E5.02013
G1 X132.481 Y183.151 E5.04507
G1 X131.508 Y182.908 E5.07842
G1 X131.257 Y182.841 E5.08706
G1 X130.628 Y182.662 E5.10881
G1 X129.952 Y182.428 E5.13261
G1 X129.307 Y182.12 E5.15638
G1 X128.699 Y181.742 E5.18019
G1 X127.987 Y181.16 E5.21078
G1 X127.605 Y180.795 E5.22835
G1 X127.075 Y180.265 E5.25328
G1 X126.603 Y179.779 E5.27581
G1 X126.134 Y179.239 E5.2996
G1 X125.728 Y178.65 E5.3234
G1 X125.391 Y178.019 E5.34719
G1 X125.061 Y177.15 E5.37811
G1 X124.915 Y176.652 E5.39537
G1 X124.728 Y175.952 E5.41947
G1 X124.556 Y175.272 E5.44279
G1 X124.42 Y174.57 E5.46658
G1 X124.363 Y173.857 E5.49037
G1 X124.374 Y173.217 E5.51166
G1 X124.432 Y170.477 E5.60281
G1 X124.415 Y167.836 E5.69065
G1 X124.383 Y166.914 E5.72134
G1 X124.362 Y165.955 E5.75324
G1 X124.375 Y165.282 E5.77563
G1 X124.432 Y162.577 E5.86562
G1 X124.415 Y159.936 E5.95346
G1 X124.383 Y159.014 E5.98414
G1 X124.362 Y158.055 E6.01605
G1 X124.375 Y157.382 E6.03844
G1 X124.432 Y154.677 E6.12842
G1 X124.415 Y152.036 E6.21627
G1 X124.383 Y151.114 E6.24695
G1 X124.362 Y150.155 E6.27885
G1 X124.375 Y149.482 E6.30124
G1 X124.432 Y146.777 E6.39123
G1 X124.415 Y144.136 E6.47907
G1 X124.383 Y143.214 E6.50976
G1 X124.362 Y142.255 E6.54166
G1 X124.375 Y141.582 E6.56405
G1 X124.432 Y138.877 E6.65404
G1 X124.415 Y136.236 E6.74188
G1 X124.383 Y135.314 E6.77256
G1 X124.362 Y134.355 E6.80447
G1 X124.375 Y133.682 E6.82686
G1 X124.432 Y130.977 E6.91685
G1 X124.415 Y128.336 E7.00469
G1 X124.382 Y127.412 E7.03544
G1 X124.362 Y126.485 E7.06628
G1 X124.387 Y125.77 E7.09007
G1 X124.546 Y124.82 E7.12211
G1 X124.807 Y123.758 E7.15848
G1 X124.862 Y123.55 E7.16564
G1 X125.031 Y122.95 E7.18637
G1 X125.263 Y122.273 E7.21018
G1 X125.569 Y121.627 E7.23395
G1 X125.945 Y121.019 E7.25773
G1 X126.524 Y120.305 E7.2883
M205 X10 Y10
G0 F6000 X126.816 Y120.579
M205 X8 Y8
G1 F1200 X127.192 Y120.182 E7.30649
G1 X127.718 Y119.657 E7.33121
G1 X128.199 Y119.19 E7.3535
G1 X128.723 Y118.737 E7.37654
G1 X129.296 Y118.348 E7.39958
G1 X129.91 Y118.027 E7.42262
G1 X130.652 Y117.749 E7.44898
G1 X131.154 Y117.601 E7.46638
G1 X131.842 Y117.417 E7.49007
G1 X132.5 Y117.25 E7.51265
G1 X133.18 Y117.119 E7.53568
G1 X133.872 Y117.067 E7.55876
G1 X134.903 Y117.05 E7.59306
G1 X165.293 Y117.05 E8.60383
G1 X166.064 Y117.061 E8.62948
G1 X166.755 Y117.111 E8.65252
G1 X167.425 Y117.238 E8.6752
G1 X168.389 Y117.478 E8.70825
G1 X168.633 Y117.544 E8.71665
G1 X169.262 Y117.723 E8.7384
G1 X169.916 Y117.951 E8.76144
G1 X170.54 Y118.252 E8.78448
G1 X171.124 Y118.624 E8.80751
G1 X171.739 Y119.131 E8.83402
G1 X172.113 Y119.487 E8.8512
G1 X172.637 Y120.013 E8.87589
G1 X173.113 Y120.504 E8.89864
G1 X173.565 Y121.028 E8.92165
G1 X173.955 Y121.601 E8.94471
G1 X174.275 Y122.215 E8.96773
G1 X174.55 Y122.948 E8.99377
G1 X174.698 Y123.449 E9.01115
G1 X174.881 Y124.134 E9.03473
G1 X175.057 Y124.832 E9.05867
G1 X175.187 Y125.512 E9.0817
G1 X175.235 Y126.511 E9.11496
G1 X175.226 Y126.765 E9.12342
G1 X175.168 Y129.517 E9.21497
G1 X175.186 Y132.181 E9.30358
G1 X175.218 Y133.095 E9.334
G1 X175.239 Y134.054 E9.3659
G1 X175.168 Y137.417 E9.47778
G1 X175.186 Y140.081 E9.56639
G1 X175.218 Y140.995 E9.5968
G1 X175.239 Y141.954 E9.62871
G1 X175.168 Y145.317 E9.74059
G1 X175.186 Y147.981 E9.82919
G1 X175.218 Y148.895 E9.85961
G1 X175.239 Y149.854 E9.89152
G1 X175.168 Y153.217 E10.00339
G1 X175.186 Y155.881 E10.092
G1 X175.218 Y156.795 E10.12242
G1 X175.239 Y157.754 E10.15432
G1 X175.168 Y161.117 E10.2662
G1 X175.186 Y163.781 E10.35481
G1 X175.218 Y164.695 E10.38523
G1 X175.239 Y165.654 E10.41713
G1 X175.168 Y169.017 E10.52901
G1 X175.186 Y171.681 E10.61762
G1 X175.218 Y172.597 E10.6481
G1 X175.238 Y173.524 E10.67894
G1 X175.213 Y174.216 E10.70197
G1 X175.066 Y175.085 E10.73129
G1 X174.805 Y176.147 E10.76766
G1 X174.751 Y176.349 E10.77462
G1 X174.58 Y176.953 E10.79549
G1 X174.353 Y177.608 E10.81855
G1 X174.053 Y178.232 E10.84158
G1 X173.682 Y178.817 E10.86462
G1 X173.17 Y179.438 E10.89139
G1 X172.813 Y179.813 E10.90861
G1 X172.299 Y180.325 E10.93274
G1 X171.807 Y180.804 E10.95558
G1 X171.284 Y181.258 E10.97861
G1 X170.712 Y181.648 E11.00164
G1 X170.099 Y181.97 E11.02467
G1 X169.344 Y182.252 E11.05147
G1 X168.846 Y182.399 E11.06874
G1 X168.158 Y182.583 E11.09243
G1 X167.5 Y182.75 E11.11501
G1 X166.82 Y182.881 E11.13804
G1 X166.128 Y182.933 E11.16112
G1 X165.097 Y182.95 E11.19542
G1 X134.619 Y182.949 E12.20912
G1 X133.937 Y182.939 E12.23181
G1 X133.246 Y182.889 E12.25485
G1 X132.578 Y182.763 E12.27746
G1 X131.611 Y182.522 E12.31061
G1 X131.367 Y182.456 E12.31901
G1 X130.738 Y182.277 E12.34077
G1 X130.084 Y182.049 E12.3638
G1 X129.46 Y181.748 E12.38684
G1 X128.876 Y181.376 E12.40987
G1 X128.261 Y180.869 E12.43638
G1 X127.887 Y180.513 E12.45356
G1 X127.362 Y179.986 E12.4783
G1 X126.89 Y179.5 E12.50083
G1 X126.437 Y178.976 E12.52387
G1 X126.047 Y178.404 E12.5469
G1 X125.726 Y177.79 E12.56994
G1 X125.445 Y177.036 E12.5967
G1 X125.301 Y176.548 E12.61363
G1 X125.116 Y175.854 E12.63752
G1 X124.944 Y175.174 E12.66084
G1 X124.813 Y174.494 E12.68388
G1 X124.765 Y173.492 E12.71724
G1 X124.774 Y173.235 E12.7258
G1 X124.832 Y170.483 E12.81735
G1 X124.814 Y167.819 E12.90595
G1 X124.782 Y166.905 E12.93637
G1 X124.761 Y165.946 E12.96828
G1 X124.832 Y162.583 E13.08016
G1 X124.814 Y159.919 E13.16876
G1 X124.782 Y159.005 E13.19918
G1 X124.761 Y158.046 E13.23109
G1 X124.832 Y154.683 E13.34296
G1 X124.814 Y152.019 E13.43157
G1 X124.782 Y151.105 E13.46199
G1 X124.761 Y150.146 E13.49389
G1 X124.832 Y146.783 E13.60577
G1 X124.814 Y144.119 E13.69438
G1 X124.782 Y143.205 E13.7248
G1 X124.761 Y142.246 E13.7567
G1 X124.832 Y138.883 E13.86858
G1 X124.814 Y136.219 E13.95719
G1 X124.782 Y135.305 E13.98761
G1 X124.761 Y134.346 E14.01951
G1 X124.832 Y130.983 E14.13139
G1 X124.814 Y128.319 E14.22
G1 X124.782 Y127.403 E14.25048
G1 X124.762 Y126.476 E14.28132
G1 X124.787 Y125.784 E14.30435
G1 X124.934 Y124.915 E14.33366
G1 X125.195 Y123.853 E14.37004
G1 X125.247 Y123.658 E14.37675
G1 X125.416 Y123.058 E14.39748
G1 X125.642 Y122.404 E14.4205
G1 X125.941 Y121.779 E14.44354
G1 X126.311 Y121.194 E14.46656
G1 X126.816 Y120.579 E14.49303
M205 X10 Y10
G0 F6000 X127.108 Y120.853
M205 X8 Y8
G1 F1200 X127.475 Y120.465 E14.51079
G1 X127.997 Y119.944 E14.53532
G1 X128.478 Y119.477 E14.55762
G1 X128.985 Y119.041 E14.57986
G1 X129.541 Y118.668 E14.60213
G1 X130.136 Y118.364 E14.62435
G1 X130.767 Y118.132 E14.64671
G1 X131.258 Y117.987 E14.66374
G1 X131.94 Y117.805 E14.68722
G1 X132.598 Y117.638 E14.7098
G1 X133.256 Y117.513 E14.73208
G1 X133.879 Y117.467 E14.75285
G1 X134.903 Y117.45 E14.78692
G1 X165.293 Y117.45 E15.79769
G1 X166.058 Y117.461 E15.82314
G1 X166.725 Y117.51 E15.84538
G1 X167.328 Y117.626 E15.86581
G1 X168.286 Y117.865 E15.89865
G1 X168.524 Y117.929 E15.90684
G1 X169.153 Y118.108 E15.92859
G1 X169.784 Y118.329 E15.95083
G1 X170.385 Y118.624 E15.9731
G1 X170.946 Y118.988 E15.99534
G1 X171.464 Y119.422 E16.01782
G1 X171.83 Y119.77 E16.03462
G1 X172.35 Y120.291 E16.0591
G1 X172.826 Y120.782 E16.08184
G1 X173.262 Y121.289 E16.10408
G1 X173.634 Y121.845 E16.12633
G1 X173.938 Y122.441 E16.14859
G1 X174.167 Y123.063 E16.17063
G1 X174.311 Y123.553 E16.18762
G1 X174.493 Y124.232 E16.211
G1 X174.669 Y124.93 E16.23494
G1 X174.794 Y125.587 E16.25719
G1 X174.835 Y126.497 E16.28748
G1 X174.826 Y126.757 E16.29614
G1 X174.768 Y129.511 E16.38776
G1 X174.786 Y132.199 E16.47716
G1 X174.818 Y133.103 E16.50725
G1 X174.839 Y134.062 E16.53915
G1 X174.768 Y137.411 E16.65056
G1 X174.786 Y140.099 E16.73997
G1 X174.818 Y141.003 E16.77005
G1 X174.839 Y141.962 E16.80196
G1 X174.768 Y145.311 E16.91337
G1 X174.786 Y147.999 E17.00278
G1 X174.818 Y148.903 E17.03286
G1 X174.839 Y149.862 E17.06477
G1 X174.768 Y153.211 E17.17618
G1 X174.786 Y155.899 E17.26559
G1 X174.818 Y156.803 E17.29567
G1 X174.839 Y157.762 E17.32758
G1 X174.768 Y161.111 E17.43899
G1 X174.786 Y163.799 E17.52839
G1 X174.818 Y164.703 E17.55848
G1 X174.839 Y165.662 E17.59038
G1 X174.768 Y169.011 E17.7018
G1 X174.786 Y171.699 E17.7912
G1 X174.818 Y172.605 E17.82136
G1 X174.838 Y173.532 E17.85219
G1 X174.812 Y174.201 E17.87446
G1 X174.677 Y174.99 E17.90109
G1 X174.416 Y176.052 E17.93746
G1 X174.366 Y176.24 E17.94393
G1 X174.195 Y176.844 E17.96481
G1 X173.975 Y177.476 E17.98707
G1 X173.681 Y178.077 E18.00932
G1 X173.317 Y178.639 E18.03159
G1 X172.879 Y179.164 E18.05433
G1 X172.53 Y179.53 E18.07115
G1 X172.02 Y180.038 E18.09509
G1 X171.528 Y180.517 E18.11793
G1 X171.022 Y180.955 E18.14019
G1 X170.467 Y181.328 E18.16243
G1 X169.872 Y181.633 E18.18467
G1 X169.23 Y181.869 E18.20742
G1 X168.742 Y182.013 E18.22434
G1 X168.06 Y182.195 E18.24782
G1 X167.402 Y182.362 E18.2704
G1 X166.744 Y182.487 E18.29267
G1 X166.121 Y182.533 E18.31345
G1 X165.097 Y182.55 E18.34752
G1 X134.625 Y182.549 E19.36102
G1 X133.943 Y182.539 E19.3837
G1 X133.276 Y182.49 E19.40595
G1 X132.674 Y182.375 E19.42633
G1 X131.714 Y182.135 E19.45925
G1 X131.476 Y182.071 E19.46744
G1 X130.847 Y181.892 E19.48919
G1 X130.216 Y181.671 E19.51143
G1 X129.615 Y181.376 E19.5337
G1 X129.054 Y181.012 E19.55594
G1 X128.536 Y180.578 E19.57842
G1 X128.17 Y180.23 E19.59521
G1 X127.649 Y179.708 E19.61974
G1 X127.177 Y179.222 E19.64228
G1 X126.74 Y178.715 E19.66454
G1 X126.367 Y178.159 E19.68681
G1 X126.063 Y177.563 E19.70906
G1 X125.828 Y176.922 E19.73177
G1 X125.688 Y176.445 E19.7483
G1 X125.504 Y175.756 E19.77202
G1 X125.332 Y175.076 E19.79535
G1 X125.207 Y174.419 E19.8176
G1 X125.164 Y173.506 E19.848
G1 X125.176 Y173.165 E19.85934
G1 X125.232 Y170.489 E19.94837
G1 X125.214 Y167.801 E20.03777
G1 X125.182 Y166.897 E20.06786
G1 X125.161 Y165.938 E20.09976
G1 X125.232 Y162.589 E20.21118
G1 X125.214 Y159.901 E20.30058
G1 X125.182 Y158.997 E20.33067
G1 X125.161 Y158.038 E20.36257
G1 X125.232 Y154.689 E20.47399
G1 X125.214 Y152.001 E20.56339
G1 X125.182 Y151.097 E20.59348
G1 X125.161 Y150.138 E20.62538
G1 X125.232 Y146.789 E20.73679
G1 X125.214 Y144.101 E20.8262
G1 X125.182 Y143.197 E20.85629
G1 X125.161 Y142.238 E20.88819
G1 X125.232 Y138.889 E20.9996
G1 X125.214 Y136.201 E21.08901
G1 X125.182 Y135.297 E21.11909
G1 X125.161 Y134.338 E21.151
G1 X125.232 Y130.989 E21.26241
G1 X125.214 Y128.301 E21.35182
G1 X125.182 Y127.395 E21.38197
G1 X125.162 Y126.468 E21.41281
G1 X125.188 Y125.799 E21.43508
G1 X125.323 Y125.01 E21.4617
G1 X125.584 Y123.948 E21.49807
G1 X125.632 Y123.767 E21.5043
G1 X125.801 Y123.167 E21.52503
G1 X126.02 Y122.535 E21.54728
G1 X126.314 Y121.933 E21.56956
G1 X126.677 Y121.371 E21.59182
G1 X127.108 Y120.853 E21.61423
M205 X10 Y10
G0 F6000 X127.399 Y121.127
M205 X8 Y8
G1 F1200 X127.758 Y120.748 E21.63159
G1 X128.276 Y120.231 E21.65593
G1 X128.757 Y119.764 E21.67823
G1 X129.246 Y119.345 E21.69965
G1 X129.784 Y118.989 E21.72111
G1 X130.361 Y118.702 E21.74254
G1 X130.882 Y118.515 E21.76095
G1 X131.361 Y118.374 E21.77756
G1 X132.039 Y118.193 E21.8009
G1 X132.697 Y118.026 E21.82348
G1 X133.33 Y117.906 E21.84491
G1 X133.886 Y117.867 E21.86344
G1 X134.903 Y117.85 E21.89727
G1 X165.293 Y117.85 E22.90805
G1 X166.052 Y117.861 E22.9333
G1 X166.695 Y117.91 E22.95474
G1 X167.232 Y118.014 E22.97294
G1 X168.183 Y118.251 E23.00554
G1 X168.414 Y118.314 E23.0135
G1 X169.043 Y118.493 E23.03525
G1 X169.651 Y118.707 E23.05669
G1 X170.228 Y118.995 E23.07814
G1 X170.765 Y119.353 E23.0996
