;FLAVOR:Marlin
;TIME:10762
;Filament used: 11.3365m
;Layer height: 0.2
;MINX:168.866
;MINY:229.414
;MINZ:0.2
;MAXX:279.46
;MAXY:280.302
;MAXZ:25.075
;LINEARADVANCEPROCESSED
;Generated with Cura_SteamEngine 4.12.1
M82 ;absolute extrusion mode
G21                                        ; metric values 
G90                                        ; absolute positioning 
M82                                        ; set extruder to absolute mode 
M107                                       ; start with the fan off 
M140 S60           ; Start heating the bed 
G4 S60                                     ; wait 1 minute 
M104 S200.0         ; start heating the hot end 
M190 S60           ; wait for bed 
M109 S200.0         ; wait for hotend 
M300 S1000 P500                            ; BEEP heating done 
G28 X0 Y10 Z0                              ; move X/Y to min endstops 
M420 S1                                    ; Enable leveling 
M420 Z2.0                                  ; Set leveling fading height to 2 mm 
G0 Z0.15                                   ; lift nozzle a bit 
G92 E0                                     ; zero the extruded length 
G1 X50 E25 F500                            ; Extrude 25mm of filament in a 5cm line. 
G92 E0                                     ; zero the extruded length again 
G1 E-2 F500                                ; Retract a little 
G1 X120 F4000                              ; Quickly wipe away from the filament line`
G92 E0
G92 E0
G1 F1800 E-10
;LAYER_COUNT:125
M900 K0.800000 T0 ;added by LinearAdvanceSettingPlugin
;LAYER:0
M107
G1 F1800 Z0.275
G0 F1080 X176.132 Y230.69 Z0.275
;TYPE:SKIRT
M900 K0.000000 T0 ;added by LinearAdvanceSettingPlugin
G1 F1800 Z0.2
G1 F1800 E0
G1 F900 X176.65 Y230.306 E0.02145
G1 X177.21 Y229.988 E0.04287
G1 X177.806 Y229.742 E0.06431
G1 X178.544 Y229.549 E0.08968
G1 X178.755 Y229.51 E0.09682
G1 X179.623 Y229.424 E0.12583
G1 X180.309 Y229.414 E0.14865
G1 X268.553 Y229.414 E3.08366
G1 X269.325 Y229.425 E3.10934
G1 X269.753 Y229.448 E3.12359
G1 X270.299 Y229.501 E3.14184
G1 X270.463 Y229.52 E3.14733
G1 X271.044 Y229.595 E3.16681
G1 X271.677 Y229.717 E3.18825
G1 X272.016 Y229.817 E3.20001
G1 X272.507 Y229.98 E3.21722
G1 X272.661 Y230.034 E3.22264
G1 X273.214 Y230.237 E3.24224
G1 X273.952 Y230.575 E3.26924
G1 X274.59 Y230.957 E3.29397
G1 X275.187 Y231.341 E3.31758
G1 X275.879 Y231.874 E3.34663
G1 X276.39 Y232.367 E3.37025
G1 X276.878 Y232.865 E3.39344
G1 X277.299 Y233.353 E3.41487
G1 X277.521 Y233.67 E3.42774
G1 X277.833 Y234.152 E3.44684
G1 X277.914 Y234.281 E3.45191
G1 X278.204 Y234.759 E3.4705
G1 X278.529 Y235.388 E3.49405
G1 X278.83 Y236.183 E3.52232
G1 X279.058 Y236.864 E3.54621
G1 X279.25 Y237.635 E3.57264
G1 X279.352 Y238.388 E3.59791
G1 X279.368 Y238.528 E3.6026
G1 X279.426 Y239.118 E3.62232
G1 X279.45 Y239.555 E3.63687
G1 X279.46 Y240.274 E3.66079
G1 X279.46 Y264.436 E4.46442
G1 X279.45 Y265.163 E4.4886
G1 X279.401 Y265.805 E4.51002
G1 X279.273 Y266.437 E4.53146
G1 X279.068 Y267.048 E4.5529
G1 X278.788 Y267.629 E4.57435
G1 X278.439 Y268.171 E4.59579
G1 X278.026 Y268.666 E4.61723
G1 X277.555 Y269.106 E4.63867
G1 X277.032 Y269.484 E4.66013
G1 X276.467 Y269.794 E4.68157
G1 X275.868 Y270.033 E4.70302
G1 X275.245 Y270.195 E4.72443
G1 X274.394 Y270.289 E4.75291
G1 X273.927 Y270.3 E4.76844
G1 X234.956 Y270.318 E6.06462
G1 X232.282 Y270.357 E6.15357
G1 X229.606 Y270.472 E6.24266
G1 X226.905 Y270.665 E6.33272
G1 X224.27 Y270.928 E6.4208
G1 X221.58 Y271.273 E6.511
G1 X218.951 Y271.686 E6.59951
G1 X216.291 Y272.183 E6.68952
G1 X213.682 Y272.745 E6.77828
G1 X211.123 Y273.373 E6.86592
G1 X208.499 Y274.097 E6.95646
G1 X205.936 Y274.883 E7.04562
G1 X203.367 Y275.75 E7.1358
G1 X200.904 Y276.661 E7.22314
G1 X198.364 Y277.682 E7.31419
G1 X196.007 Y278.706 E7.39967
G1 X194.783 Y279.258 E7.44433
G1 X193.967 Y279.547 E7.47312
G1 X193.652 Y279.63 E7.48395
G1 X192.623 Y279.907 E7.5194
G1 X192.266 Y279.997 E7.53164
G1 X191.529 Y280.127 E7.55653
G1 X190.661 Y280.217 E7.58556
G1 X190.3 Y280.247 E7.59761
G1 X189.64 Y280.295 E7.61961
G1 X188.996 Y280.302 E7.64104
G1 X188.355 Y280.229 E7.66249
G1 X187.756 Y280.086 E7.68298
G1 X186.921 Y279.833 E7.71199
G1 X184.337 Y279.088 E7.80144
G1 X181.725 Y278.414 E7.89116
G1 X179.362 Y277.871 E7.9718
G1 X178.476 Y277.679 E8.00196
G1 X177.856 Y277.504 E8.02338
G1 X177.089 Y277.164 E8.05129
G1 X176.898 Y277.06 E8.05852
G1 X176.352 Y276.717 E8.07997
G1 X175.853 Y276.309 E8.1014
G1 X175.408 Y275.843 E8.12284
G1 X175.024 Y275.325 E8.14428
G1 X174.707 Y274.764 E8.16571
G1 X174.472 Y274.195 E8.18619
G1 X174.349 Y273.84 E8.19869
G1 X174.176 Y273.219 E8.22013
G1 X174.064 Y272.268 E8.25198
G1 X174.054 Y271.819 E8.26691
G1 X174.056 Y235.606 E9.47136
G1 X174.066 Y234.935 E9.49368
G1 X174.115 Y234.292 E9.51513
G1 X174.305 Y233.449 E9.54387
G1 X174.374 Y233.23 E9.55151
G1 X174.606 Y232.629 E9.57294
G1 X174.91 Y232.06 E9.59439
G1 X175.282 Y231.534 E9.61582
G1 X175.717 Y231.058 E9.63727
G1 X176.132 Y230.69 E9.65572
G1 F1800 E-0.34428
G1 F1800 Z0.275
;MESH:Limb_Bottom_Shell.stl
G0 F1080 X190.634 Y273.996 Z0.275
;TYPE:WALL-INNER
M900 K0.800000 T0 ;added by LinearAdvanceSettingPlugin
G1 F1800 Z0.2
G1 F1800 E9.65572
G1 F600 X190.26 Y274.028 E9.6682
G1 X190.26 Y272.865 E9.70688
G1 X189.99 Y272.109 E9.73358
G1 X189.266 Y271.654 E9.76202
G1 X188.917 Y271.614 E9.77371
G1 X180.254 Y271.614 E10.06184
G1 X180.255 Y235.614 E11.2592
G1 X269.211 Y235.614 E14.21789
G1 X270.148 Y235.72 E14.24926
G1 X270.99 Y236.016 E14.27894
G1 X271.75 Y236.492 E14.30877
G1 X272.384 Y237.126 E14.33859
G1 X272.855 Y237.877 E14.36807
G1 X273.155 Y238.737 E14.39837
G1 X273.26 Y239.663 E14.42936
G1 X273.26 Y264.1 E15.24214
G1 X225.071 Y264.122 E16.84492
G1 X209.223 Y264.118 E17.37202
G1 X207.489 Y264.244 E17.42985
G1 X206.965 Y264.248 E17.44728
G1 X204.709 Y264.744 E17.5241
G1 X202.792 Y265.478 E17.59238
G1 X202.366 Y265.644 E17.60758
G1 X200.631 Y266.637 E17.67407
G1 X200.234 Y266.869 E17.68937
G1 X198.549 Y268.227 E17.76134
G1 X198.194 Y268.518 E17.77661
G1 X196.739 Y270.15 E17.84933
G1 X196.503 Y270.465 E17.86242
G1 X195.978 Y271.099 E17.8898
G1 X195.921 Y271.132 E17.89199
G1 X195.213 Y271.829 E17.92504
G1 X195.148 Y271.873 E17.92765
G1 X193.882 Y272.801 E17.97986
G1 X193.718 Y272.884 E17.98597
G1 X192.268 Y273.57 E18.03932
G1 X192.192 Y273.585 E18.0419
G1 X190.634 Y273.996 E18.09549
G0 F1080 X190.701 Y274.392
G1 F600 X189.86 Y274.465 E18.12357
G1 X189.86 Y272.934 E18.17449
G1 X189.66 Y272.374 E18.19427
G1 X189.13 Y272.041 E18.21508
G1 X188.894 Y272.014 E18.22299
G1 X179.854 Y272.014 E18.52366
G1 X179.855 Y235.214 E19.74763
G1 X269.229 Y235.214 E22.72022
G1 X270.239 Y235.328 E22.75403
G1 X271.167 Y235.654 E22.78674
G1 X272.001 Y236.177 E22.81948
G1 X272.698 Y236.874 E22.85227
G1 X273.219 Y237.705 E22.88489
G1 X273.547 Y238.644 E22.91797
G1 X273.66 Y239.645 E22.95148
G1 X273.66 Y264.5 E23.77816
G1 X225.071 Y264.522 E25.39423
G1 X209.238 Y264.518 E25.92084
G1 X207.506 Y264.644 E25.9786
G1 X207.01 Y264.648 E25.9951
G1 X204.824 Y265.128 E26.06954
G1 X202.936 Y265.851 E26.13678
G1 X202.539 Y266.006 E26.15095
G1 X200.831 Y266.983 E26.2164
G1 X200.462 Y267.199 E26.23062
G1 X198.801 Y268.537 E26.30156
G1 X198.472 Y268.807 E26.31572
G1 X197.049 Y270.403 E26.38684
G1 X196.822 Y270.707 E26.39945
G1 X196.24 Y271.409 E26.42978
G1 X196.166 Y271.452 E26.43263
G1 X195.47 Y272.137 E26.46511
G1 X195.38 Y272.199 E26.46875
G1 X194.093 Y273.142 E26.52181
G1 X193.889 Y273.246 E26.52943
G1 X192.396 Y273.952 E26.58436
G1 X192.283 Y273.975 E26.58819
G1 X190.701 Y274.392 E26.64261
G0 F1080 X190.84 Y274.769
;TYPE:WALL-OUTER
G1 F600 X190.836 Y274.781 E26.64303
G1 X189.46 Y274.901 E26.68897
G1 X189.46 Y273.003 E26.7521
G1 X189.33 Y272.639 E26.76495
G1 X188.994 Y272.428 E26.77815
G1 X188.871 Y272.414 E26.78226
G1 X179.666 Y272.414 E27.08842
G1 X179.478 Y272.303 E27.09569
G1 X179.454 Y272.207 E27.09898
G1 X179.455 Y235.022 E28.33576
G1 X179.574 Y234.833 E28.34318
G1 X179.668 Y234.814 E28.34637
G1 X269.247 Y234.814 E31.32578
G1 X270.328 Y234.936 E31.36197
G1 X271.345 Y235.293 E31.39781
G1 X272.252 Y235.862 E31.43343
G1 X273.012 Y236.622 E31.46917
G1 X273.583 Y237.533 E31.50493
G1 X273.939 Y238.551 E31.5408
G1 X274.06 Y239.627 E31.57682
G1 X274.06 Y264.9 E32.4174
G1 X225.071 Y264.922 E34.04678
G1 X209.253 Y264.918 E34.57289
G1 X207.523 Y265.044 E34.63058
G1 X207.055 Y265.048 E34.64615
G1 X204.939 Y265.512 E34.7182
G1 X203.08 Y266.224 E34.78441
G1 X202.712 Y266.368 E34.79755
G1 X201.031 Y267.329 E34.86196
G1 X200.69 Y267.529 E34.8751
G1 X199.053 Y268.847 E34.945
G1 X198.75 Y269.096 E34.95805
G1 X197.359 Y270.656 E35.02757
G1 X197.141 Y270.949 E35.03971
G1 X196.502 Y271.719 E35.07299
G1 X196.411 Y271.772 E35.0765
G1 X195.727 Y272.446 E35.10843
G1 X195.612 Y272.525 E35.11307
G1 X194.305 Y273.483 E35.16697
G1 X194.06 Y273.608 E35.17612
G1 X192.524 Y274.334 E35.23263
G1 X192.374 Y274.365 E35.23772
G1 X190.84 Y274.769 E35.29048
G0 F1080 X190.836 Y274.781
G0 X190.45 Y274.814
G0 X190.413 Y274.376
G0 X190.65 Y273.588
;TYPE:SKIN
G1 F600 X190.65 Y272.797 E35.31679
G1 X190.312 Y271.851 E35.3502
G1 X189.399 Y271.276 E35.38609
G1 X188.939 Y271.224 E35.40149
G1 X180.644 Y271.224 E35.67738
G1 X180.645 Y236.004 E36.8488
G1 X269.186 Y236.004 E39.79369
G1 X270.062 Y236.103 E39.82301
G1 X270.822 Y236.371 E39.84981
G1 X271.508 Y236.8 E39.87672
G1 X272.076 Y237.368 E39.90344
G1 X272.5 Y238.045 E39.93001
G1 X272.771 Y238.822 E39.95738
G1 X272.87 Y239.689 E39.9864
G1 X272.87 Y263.71 E40.78534
G1 X225.071 Y263.732 E42.37515
G1 X209.209 Y263.728 E42.90272
G1 X207.486 Y263.854 E42.96018
G1 X206.922 Y263.858 E42.97894
G1 X204.596 Y264.369 E43.05815
G1 X202.651 Y265.114 E43.12742
G1 X202.198 Y265.291 E43.1436
G1 X200.436 Y266.3 E43.21113
G1 X200.012 Y266.547 E43.22745
G1 X198.303 Y267.925 E43.30047
G1 X197.923 Y268.235 E43.31678
G1 X196.437 Y269.903 E43.39108
G1 X196.197 Y270.223 E43.40438
G1 X195.723 Y270.796 E43.42912
G1 X195.683 Y270.819 E43.43065
G1 X194.967 Y271.524 E43.46407
G1 X194.923 Y271.554 E43.46584
G1 X193.676 Y272.469 E43.51729
G1 X193.589 Y272.513 E43.52053
G1 X192.142 Y273.198 E43.57378
G1 X192.104 Y273.205 E43.57506
G1 X190.65 Y273.588 E43.62507
G1 F1800 E33.62507
G1 F1800 Z0.275
G0 F1080 X181.08 Y271.024 Z0.275
G1 F1800 Z0.2
G1 F1800 E43.62507
G1 F600 X180.841 Y270.785 E43.63631
G0 F1080 X180.841 Y270.22
G1 F600 X181.646 Y271.024 E43.67415
G0 F1080 X182.212 Y271.024
G1 F600 X180.841 Y269.654 E43.73862
G0 F1080 X180.841 Y269.088
G1 F600 X182.777 Y271.024 E43.82968
G0 F1080 X183.343 Y271.024
G1 F600 X180.841 Y268.523 E43.94735
G0 F1080 X180.841 Y267.957
G1 F600 X183.909 Y271.024 E44.09163
G0 F1080 X184.474 Y271.024
G1 F600 X180.841 Y267.391 E44.26252
G0 F1080 X180.841 Y266.826
G1 F600 X185.04 Y271.024 E44.46
G0 F1080 X185.606 Y271.024
G1 F600 X180.841 Y266.26 E44.68411
G0 F1080 X180.841 Y265.694
G1 F600 X186.172 Y271.024 E44.93484
G0 F1080 X186.737 Y271.024
G1 F600 X180.841 Y265.128 E45.21217
G0 F1080 X180.841 Y264.563
G1 F600 X187.303 Y271.024 E45.5161
G0 F1080 X187.869 Y271.024
G1 F600 X180.841 Y263.997 E45.84665
G0 F1080 X180.841 Y263.431
G1 F600 X188.434 Y271.024 E46.2038
G0 F1080 X189.007 Y271.031
G1 F600 X180.841 Y262.866 E46.58788
G0 F1080 X180.841 Y262.3
G1 F600 X189.894 Y271.352 E47.01368
G1 X189.964 Y271.422
G0 F1080 X190.595 Y272.054
G1 F600 X191.658 Y273.117 E47.06368
G0 F1080 X192.102 Y272.995
G1 F600 X180.841 Y261.734 E47.59337
G0 F1080 X180.841 Y261.169
G1 F600 X192.486 Y272.813 E48.14109
G0 F1080 X192.871 Y272.632
G1 F600 X180.841 Y260.603 E48.70692
G0 F1080 X180.841 Y260.037
G1 F600 X193.255 Y272.451 E49.29084
G0 F1080 X193.627 Y272.258
G1 F600 X180.841 Y259.472 E49.89225
G0 F1080 X180.841 Y258.906
G1 F600 X193.953 Y272.018 E50.509
G0 F1080 X194.28 Y271.779
G1 F600 X180.841 Y258.34 E51.14113
G0 F1080 X180.841 Y257.775
G1 F600 X194.606 Y271.539 E51.78857
G0 F1080 X194.921 Y271.288
G1 F600 X180.841 Y257.209 E52.45082
G0 F1080 X180.841 Y256.643
G1 F600 X195.206 Y271.008 E53.12651
G0 F1080 X195.491 Y270.727
G1 F600 X180.841 Y256.078 E53.81558
G0 F1080 X180.841 Y255.512
G1 F600 X195.764 Y270.435 E54.51751
G0 F1080 X196.02 Y270.125
G1 F600 X180.841 Y254.946 E55.23148
G0 F1080 X180.841 Y254.38
G1 F600 X196.263 Y269.802 E55.95689
G0 F1080 X196.528 Y269.501
G1 F600 X180.841 Y253.815 E56.69473
G0 F1080 X180.842 Y253.25
G1 F600 X196.794 Y269.202 E57.44506
G0 F1080 X197.061 Y268.903
G1 F600 X180.842 Y252.684 E58.20796
G0 F1080 X180.842 Y252.118
G1 F600 X197.328 Y268.604 E58.98341
G0 F1080 X197.594 Y268.305
G1 F600 X180.842 Y251.553 E59.77137
G0 F1080 X180.842 Y250.987
G1 F600 X197.873 Y268.018 E60.57246
G0 F1080 X198.185 Y267.765
G1 F600 X180.842 Y250.421 E61.38824
G0 F1080 X180.842 Y249.856
G1 F600 X198.498 Y267.511 E62.2187
G0 F1080 X198.811 Y267.259
G1 F600 X180.842 Y249.29 E63.06391
G0 F1080 X180.842 Y248.724
G1 F600 X199.124 Y267.007 E63.92386
G0 F1080 X199.438 Y266.754
G1 F600 X180.842 Y248.159 E64.79854
G0 F1080 X180.842 Y247.593
G1 F600 X199.75 Y266.501 E65.68791
G0 F1080 X200.087 Y266.272
G1 F600 X180.842 Y247.027 E66.59314
G0 F1080 X180.842 Y246.462
G1 F600 X200.445 Y266.065 E67.5152
G0 F1080 X200.805 Y265.859
G1 F600 X180.842 Y245.896 E68.4542
G0 F1080 X180.842 Y245.33
G1 F600 X201.164 Y265.652 E69.41008
G0 F1080 X201.524 Y265.447
G1 F600 X180.842 Y244.765 E70.3829
G0 F1080 X180.842 Y244.199
G1 F600 X201.883 Y265.24 E71.37261
G0 F1080 X202.26 Y265.051
G1 F600 X180.842 Y243.633 E72.38004
G0 F1080 X180.842 Y243.067
G1 F600 X202.668 Y264.894 E73.40669
G0 F1080 X203.077 Y264.737
G1 F600 X180.842 Y242.502 E74.45256
G0 F1080 X180.842 Y241.936
G1 F600 X203.486 Y264.58 E75.51767
G0 F1080 X203.895 Y264.423
G1 F600 X180.842 Y241.37 E76.60201
G0 F1080 X180.842 Y240.805
G1 F600 X204.304 Y264.267 E77.70559
G0 F1080 X204.737 Y264.134
G1 F600 X180.842 Y240.239 E78.82954
G0 F1080 X180.842 Y239.673
G1 F600 X205.2 Y264.032 E79.97528
G0 F1080 X205.664 Y263.93
G1 F600 X180.842 Y239.108 E81.14284
G0 F1080 X180.842 Y238.542
G1 F600 X206.128 Y263.828 E82.33221
G0 F1080 X206.592 Y263.726
G1 F600 X180.842 Y237.976 E83.54341
G0 F1080 X180.842 Y237.411
G1 F600 X207.088 Y263.657 E84.77794
G0 F1080 X207.639 Y263.642
G1 F600 X180.842 Y236.845 E86.03839
G0 F1080 X180.842 Y236.279
G1 F600 X208.167 Y263.604 E87.32368
G0 F1080 X208.694 Y263.566
G1 F600 X181.33 Y236.201 E88.61082
G0 F1080 X181.896 Y236.201
G1 F600 X209.223 Y263.529 E89.89622
G0 F1080 X209.789 Y263.529
G1 F600 X182.461 Y236.201 E91.18165
G0 F1080 X183.027 Y236.201
G1 F600 X210.355 Y263.529 E92.46707
G0 F1080 X210.92 Y263.529
G1 F600 X183.593 Y236.201 E93.75247
G0 F1080 X184.158 Y236.201
G1 F600 X211.486 Y263.529 E95.0379
G0 F1080 X212.052 Y263.529
G1 F600 X184.724 Y236.201 E96.32332
G0 F1080 X185.29 Y236.201
G1 F600 X212.618 Y263.53 E97.60877
G0 F1080 X213.184 Y263.53
G1 F600 X185.855 Y236.201 E98.89425
G0 F1080 X186.421 Y236.201
G1 F600 X213.749 Y263.53 E100.17969
G0 F1080 X214.315 Y263.53
G1 F600 X186.987 Y236.201 E101.46514
G0 F1080 X187.553 Y236.201
G1 F600 X214.881 Y263.53 E102.75059
G0 F1080 X215.446 Y263.53
G1 F600 X188.118 Y236.201 E104.03604
G0 F1080 X188.684 Y236.201
G1 F600 X216.013 Y263.53 E105.32151
G0 F1080 X216.579 Y263.53
G1 F600 X189.25 Y236.201 E106.60699
G0 F1080 X189.815 Y236.201
G1 F600 X217.144 Y263.53 E107.89246
G0 F1080 X217.71 Y263.53
G1 F600 X190.381 Y236.201 E109.17793
G0 F1080 X190.947 Y236.201
G1 F600 X218.276 Y263.53 E110.4634
G0 F1080 X218.842 Y263.531
G1 F600 X191.512 Y236.201 E111.74892
G0 F1080 X192.078 Y236.201
G1 F600 X219.408 Y263.531 E113.03444
G0 F1080 X219.973 Y263.531
G1 F600 X192.644 Y236.201 E114.31994
G0 F1080 X193.209 Y236.201
