;FLAVOR:Marlin
;TIME:12635
;Filament used: 9.14962m
;Layer height: 0.2
;MINX:8.763
;MINY:90.652
;MINZ:0.3
;MAXX:291.243
;MAXY:209.348
;MAXZ:1.575
;Generated with Cura_SteamEngine 4.12.1
M82 ;absolute extrusion mode
G21                                        ; metric values 
G90                                        ; absolute positioning 
M82                                        ; set extruder to absolute mode 
M107                                       ; start with the fan off 
M140 S60           ; Start heating the bed 
G4 S60                                     ; wait 1 minute 
M104 S210         ; start heating the hot end 
M190 S60           ; wait for bed 
M109 S210         ; wait for hotend 
M300 S1000 P500                            ; BEEP heating done 
G28 X0 Y10 Z0                              ; move X/Y to min endstops 
M420 S1                                    ; Enable leveling 
M420 Z2.0                                  ; Set leveling fading height to 2 mm 
G0 Z0.15                                   ; lift nozzle a bit 
G92 E0                                     ; zero the extruded length 
G1 X50 E25 F500                            ; Extrude 25mm of filament in a 5cm line. 
G92 E0                                     ; zero the extruded length again 
G1 E-2 F500                                ; Retract a little 
G1 X120 F4000                              ; Quickly wipe away from the filament line`
G92 E0
G92 E0
G1 F1500 E-6
;LAYER_COUNT:7
;LAYER:0
M106 S76.5
M205 X10 Y10
G1 F600 Z0.375
G0 F6000 X30.538 Y91.385 Z0.375
M205 X8 Y8
;TYPE:SKIRT
G1 F600 Z0.3
G1 F1500 E0
G1 F1200 X31.124 Y91.241 E0.02408
G1 X31.435 Y91.185 E0.0367
G1 X32.046 Y91.092 E0.06136
G1 X34.122 Y90.8 E0.14504
G1 X34.834 Y90.71 E0.17368
G1 X35.367 Y90.666 E0.19503
G1 X35.587 Y90.659 E0.20381
G1 X36.154 Y90.652 E0.22644
G1 X263.692 Y90.652 E9.30798
G1 X264.477 Y90.663 E9.33931
G1 X265.199 Y90.714 E9.3682
G1 X265.909 Y90.805 E9.39677
G1 X267.951 Y91.093 E9.47908
G1 X268.625 Y91.197 E9.5063
G1 X269.309 Y91.343 E9.53421
G1 X269.794 Y91.497 E9.55452
G1 X270.191 Y91.651 E9.57152
G1 X270.826 Y91.926 E9.59913
G1 X272.7 Y92.762 E9.68103
G1 X273.326 Y93.052 E9.70857
G1 X273.942 Y93.382 E9.73646
G1 X274.378 Y93.674 E9.75741
G1 X274.698 Y93.919 E9.77349
G1 X275.168 Y94.305 E9.79777
G1 X276.784 Y95.665 E9.88206
G1 X277.32 Y96.128 E9.91033
G1 X277.822 Y96.614 E9.93822
G1 X278.352 Y97.277 E9.9721
G1 X278.776 Y97.89 E10.00185
G1 X279.905 Y99.572 E10.0827
G1 X280.309 Y100.191 E10.1122
G1 X280.657 Y100.798 E10.14013
G1 X280.898 Y101.344 E10.16395
G1 X281.17 Y102.123 E10.19688
G1 X281.853 Y104.237 E10.28555
G1 X282.058 Y104.903 E10.31336
G1 X282.235 Y105.621 E10.34288
G1 X282.364 Y106.31 E10.37085
G1 X290.908 Y155.262 E12.35417
G1 X291.012 Y155.914 E12.38052
G1 X291.072 Y156.442 E12.40173
G1 X291.145 Y157.48 E12.44326
G1 X291.217 Y158.847 E12.4979
G1 X291.243 Y159.499 E12.52394
G1 X291.231 Y160.198 E12.55184
G1 X291.164 Y160.755 E12.57424
G1 X290.96 Y161.963 E12.62313
G1 X290.743 Y163.11 E12.66972
G1 X290.605 Y163.787 E12.6973
G1 X290.426 Y164.464 E12.72525
G1 X290.231 Y164.98 E12.74726
G1 X289.74 Y166.12 E12.79681
G1 X289.247 Y167.203 E12.8443
G1 X288.98 Y167.772 E12.86938
G1 X288.648 Y168.387 E12.89728
G1 X288.33 Y168.852 E12.91976
G1 X287.587 Y169.837 E12.96901
G1 X286.832 Y170.795 E13.01769
G1 X286.432 Y171.289 E13.04306
G1 X285.962 Y171.807 E13.07098
G1 X285.553 Y172.173 E13.09288
G1 X284.603 Y172.95 E13.14186
G1 X283.671 Y173.68 E13.18912
G1 X283.144 Y174.082 E13.21557
G1 X282.564 Y174.474 E13.24351
G1 X282.072 Y174.737 E13.26578
G1 X280.948 Y175.273 E13.31548
G1 X279.926 Y175.736 E13.36026
G1 X279.27 Y176.023 E13.38884
G1 X278.752 Y176.222 E13.41098
G1 X277.784 Y176.544 E13.4517
G1 X176.962 Y208.332 E17.67099
G1 X176.339 Y208.519 E17.69696
G1 X175.72 Y208.685 E17.72253
G1 X174.735 Y208.916 E17.76291
G1 X174.175 Y209.039 E17.7858
G1 X173.449 Y209.153 E17.81513
G1 X172.266 Y209.266 E17.86256
G1 X172.053 Y209.281 E17.87108
G1 X171.316 Y209.327 E17.90056
G1 X170.509 Y209.348 E17.93278
G1 X129.666 Y209.347 E19.56291
G1 X128.961 Y209.337 E19.59105
G1 X128.455 Y209.317 E19.61126
G1 X128.013 Y209.287 E19.62894
G1 X127.374 Y209.237 E19.65452
G1 X126.748 Y209.18 E19.67961
G1 X126.036 Y209.072 E19.70835
G1 X124.992 Y208.851 E19.75095
G1 X124.793 Y208.806 E19.75909
G1 X123.966 Y208.602 E19.79309
G1 X123.458 Y208.461 E19.81413
G1 X123.099 Y208.352 E19.8291
G1 X21.994 Y176.474 E24.06025
G1 X21.357 Y176.263 E24.08703
G1 X20.851 Y176.07 E24.10865
G1 X19.896 Y175.656 E24.15019
G1 X18.674 Y175.102 E24.20374
G1 X18.069 Y174.818 E24.23041
G1 X17.454 Y174.485 E24.25833
G1 X16.994 Y174.171 E24.28056
G1 X16.011 Y173.431 E24.32967
G1 X15.086 Y172.705 E24.3766
G1 X14.556 Y172.277 E24.40379
G1 X14.038 Y171.808 E24.43168
G1 X13.669 Y171.397 E24.45372
G1 X12.91 Y170.469 E24.50157
G1 X12.154 Y169.506 E24.55044
G1 X11.76 Y168.99 E24.57635
G1 X11.368 Y168.411 E24.60425
G1 X11.107 Y167.926 E24.62624
G1 X10.576 Y166.817 E24.67531
G1 X10.084 Y165.732 E24.72286
G1 X9.815 Y165.115 E24.74972
G1 X9.573 Y164.459 E24.77763
G1 X9.437 Y163.932 E24.79935
G1 X9.189 Y162.75 E24.84756
G1 X8.96 Y161.537 E24.89683
G1 X8.85 Y160.902 E24.92255
G1 X8.77 Y160.207 E24.95047
G1 X8.763 Y159.662 E24.97222
G1 X8.798 Y158.564 E25.01607
G1 X8.87 Y157.191 E25.07095
G1 X8.912 Y156.579 E25.09543
G1 X8.971 Y156.057 E25.1164
G1 X9.127 Y155.059 E25.15671
G1 X17.642 Y106.279 E27.13307
G1 X17.774 Y105.579 E27.1615
G1 X17.937 Y104.92 E27.18859
G1 X18.159 Y104.198 E27.21874
G1 X18.812 Y102.18 E27.30339
G1 X19.028 Y101.549 E27.33001
G1 X19.292 Y100.901 E27.35794
G1 X19.622 Y100.298 E27.38538
G1 X20.012 Y99.693 E27.41411
G1 X21.261 Y97.835 E27.50346
G1 X21.657 Y97.265 E27.53116
G1 X22.088 Y96.715 E27.55905
G1 X22.579 Y96.217 E27.58696
G1 X22.737 Y96.076 E27.59542
G1 X23.226 Y95.655 E27.62117
G1 X24.806 Y94.327 E27.70355
G1 X25.374 Y93.864 E27.73279
G1 X25.941 Y93.454 E27.76072
G1 X26.504 Y93.134 E27.78657
G1 X26.732 Y93.023 E27.79669
G1 X27.332 Y92.747 E27.82305
G1 X29.206 Y91.912 E27.90493
G1 X29.88 Y91.623 E27.9342
G1 X30.538 Y91.385 E27.96213
M205 X10 Y10
G0 F6000 X30.647 Y91.686
M205 X8 Y8
G1 F1200 X31.185 Y91.555 E27.98423
G1 X31.484 Y91.501 E27.99636
G1 X32.09 Y91.409 E28.02082
G1 X34.162 Y91.118 E28.10433
G1 X34.874 Y91.028 E28.13297
G1 X35.383 Y90.986 E28.15336
G1 X35.591 Y90.979 E28.16166
G1 X36.158 Y90.972 E28.1843
G1 X263.692 Y90.972 E37.26567
G1 X264.472 Y90.983 E37.2968
G1 X265.159 Y91.031 E37.32429
G1 X265.864 Y91.122 E37.35266
G1 X267.902 Y91.409 E37.43481
G1 X268.576 Y91.513 E37.46202
G1 X269.242 Y91.656 E37.48921
G1 X270.064 Y91.945 E37.52399
G1 X270.695 Y92.218 E37.55143
G1 X272.565 Y93.052 E37.63315
G1 X273.191 Y93.342 E37.66069
G1 X273.791 Y93.664 E37.68787
G1 X274.257 Y93.982 E37.71038
G1 X274.495 Y94.167 E37.72241
G1 X274.962 Y94.55 E37.74652
G1 X276.574 Y95.907 E37.83062
G1 X277.11 Y96.37 E37.85889
G1 X277.599 Y96.844 E37.88607
G1 X278.089 Y97.459 E37.91745
G1 X278.51 Y98.069 E37.94704
G1 X279.637 Y99.747 E38.02771
G1 X280.041 Y100.366 E38.05721
G1 X280.379 Y100.957 E38.08439
G1 X280.599 Y101.459 E38.10626
G1 X280.866 Y102.225 E38.13864
G1 X281.547 Y104.331 E38.22698
G1 X281.752 Y104.997 E38.25479
G1 X281.921 Y105.68 E38.28287
G1 X282.049 Y106.365 E38.31069
G1 X290.592 Y155.312 E40.2938
G1 X290.696 Y155.964 E40.32015
G1 X290.753 Y156.465 E40.34028
G1 X290.826 Y157.497 E40.38157
G1 X290.897 Y158.86 E40.43604
G1 X290.923 Y159.512 E40.46209
G1 X290.911 Y160.193 E40.48927
G1 X290.848 Y160.702 E40.50974
G1 X290.645 Y161.903 E40.55836
G1 X290.429 Y163.046 E40.60478
G1 X290.291 Y163.723 E40.63236
G1 X290.116 Y164.381 E40.65953
G1 X289.937 Y164.854 E40.67972
G1 X289.449 Y165.988 E40.72899
G1 X288.958 Y167.067 E40.77631
G1 X288.691 Y167.636 E40.80139
G1 X288.366 Y168.234 E40.82856
G1 X288.074 Y168.66 E40.84917
G1 X287.411 Y169.541 E40.89318
G1 X286.584 Y170.594 E40.94662
G1 X286.184 Y171.088 E40.97199
G1 X285.725 Y171.591 E40.99917
G1 X285.351 Y171.926 E41.01921
G1 X284.501 Y172.622 E41.06305
G1 X283.477 Y173.425 E41.11499
G1 X282.95 Y173.827 E41.14144
G1 X282.385 Y174.208 E41.16864
G1 X281.934 Y174.448 E41.18903
G1 X280.816 Y174.982 E41.23848
G1 X279.798 Y175.443 E41.28309
G1 X279.142 Y175.73 E41.31167
G1 X278.651 Y175.918 E41.33265
G1 X277.688 Y176.239 E41.37316
G1 X176.87 Y208.025 E45.59228
G1 X176.088 Y208.258 E45.62485
G1 X175.647 Y208.373 E45.64304
G1 X174.666 Y208.603 E45.68325
G1 X174.106 Y208.726 E45.70614
G1 X173.419 Y208.834 E45.73389
G1 X172.242 Y208.946 E45.78108
G1 X172.033 Y208.962 E45.78945
G1 X171.296 Y209.008 E45.81892
G1 X170.506 Y209.028 E45.85046
G1 X129.671 Y209.027 E47.48028
G1 X128.8 Y209.013 E47.51504
G1 X128.1 Y208.972 E47.54303
G1 X127.482 Y208.925 E47.56777
G1 X126.777 Y208.861 E47.59602
G1 X126.102 Y208.759 E47.62327
G1 X125.058 Y208.538 E47.66586
G1 X124.87 Y208.495 E47.67356
G1 X124.043 Y208.291 E47.70755
G1 X123.551 Y208.155 E47.72793
G1 X123.195 Y208.047 E47.74277
G1 X22.094 Y176.17 E51.97376
G1 X21.457 Y175.959 E52.00054
G1 X20.978 Y175.776 E52.021
G1 X20.028 Y175.364 E52.06233
G1 X18.81 Y174.812 E52.11571
G1 X18.205 Y174.528 E52.14238
G1 X17.607 Y174.203 E52.16955
G1 X17.187 Y173.915 E52.18987
G1 X16.209 Y173.179 E52.23872
G1 X15.287 Y172.456 E52.28549
G1 X14.757 Y172.028 E52.31268
G1 X14.253 Y171.57 E52.33986
G1 X13.916 Y171.194 E52.36001
G1 X13.161 Y170.271 E52.4076
G1 X12.408 Y169.312 E52.45627
G1 X12.014 Y168.796 E52.48218
G1 X11.633 Y168.231 E52.50938
G1 X11.396 Y167.787 E52.52947
G1 X10.868 Y166.685 E52.57824
G1 X10.377 Y165.604 E52.62562
G1 X10.108 Y164.987 E52.65249
G1 X9.873 Y164.348 E52.67966
G1 X9.75 Y163.866 E52.69952
G1 X9.503 Y162.691 E52.74744
G1 X9.275 Y161.482 E52.79654
G1 X9.165 Y160.847 E52.82226
G1 X9.088 Y160.17 E52.84946
G1 X9.083 Y159.672 E52.86934
G1 X9.123 Y158.452 E52.91806
G1 X9.19 Y157.213 E52.96758
G1 X9.232 Y156.601 E52.99206
G1 X9.287 Y156.106 E53.01194
G1 X9.442 Y155.114 E53.05201
G1 X17.956 Y106.338 E55.02821
G1 X18.088 Y105.638 E55.05664
G1 X18.243 Y105.013 E55.08234
G1 X18.463 Y104.296 E55.11227
G1 X19.083 Y102.378 E55.19272
G1 X19.331 Y101.653 E55.2233
G1 X19.589 Y101.022 E55.25051
G1 X19.893 Y100.467 E55.27577
G1 X20.28 Y99.868 E55.30423
G1 X21.473 Y98.092 E55.38962
G1 X21.92 Y97.448 E55.42091
G1 X22.34 Y96.912 E55.44809
G1 X22.794 Y96.454 E55.47383
G1 X22.946 Y96.319 E55.48194
G1 X23.432 Y95.9 E55.50755
G1 X25.008 Y94.575 E55.58973
G1 X25.576 Y94.112 E55.61898
G1 X26.129 Y93.714 E55.64617
G1 X26.647 Y93.42 E55.66995
G1 X26.866 Y93.314 E55.67966
G1 X27.462 Y93.039 E55.70586
G1 X29.332 Y92.206 E55.78756
G1 X30.006 Y91.917 E55.81683
G1 X30.647 Y91.686 E55.84402
M205 X10 Y10
G0 F6000 X30.755 Y91.988
M205 X8 Y8
G1 F1200 X31.246 Y91.869 E55.86419
G1 X31.532 Y91.817 E55.87579
G1 X32.135 Y91.725 E55.90014
G1 X34.202 Y91.435 E55.98344
G1 X34.914 Y91.345 E56.01209
G1 X35.595 Y91.299 E56.03933
G1 X36.162 Y91.292 E56.06196
G1 X263.692 Y91.292 E65.14317
G1 X264.468 Y91.303 E65.17415
G1 X265.118 Y91.349 E65.20016
G1 X265.819 Y91.438 E65.22836
G1 X267.854 Y91.725 E65.31039
G1 X268.528 Y91.829 E65.3376
G1 X269.174 Y91.969 E65.36399
G1 X269.937 Y92.239 E65.39629
G1 X270.565 Y92.51 E65.42359
G1 X272.43 Y93.343 E65.50511
G1 X273.056 Y93.633 E65.53265
G1 X273.639 Y93.947 E65.55908
G1 X274.067 Y94.24 E65.57978
G1 X274.292 Y94.415 E65.59116
G1 X274.756 Y94.795 E65.61509
G1 X276.365 Y96.149 E65.69902
G1 X276.901 Y96.612 E65.72729
G1 X277.375 Y97.074 E65.75371
G1 X277.826 Y97.641 E65.78263
G1 X278.244 Y98.247 E65.81201
G1 X279.369 Y99.922 E65.89254
G1 X279.773 Y100.541 E65.92204
G1 X280.101 Y101.116 E65.94847
G1 X280.329 Y101.646 E65.97149
G1 X280.563 Y102.327 E66.00023
G1 X281.218 Y104.35 E66.0851
G1 X281.446 Y105.091 E66.11605
G1 X281.606 Y105.739 E66.14268
G1 X281.733 Y106.42 E66.17033
G1 X290.276 Y155.363 E68.15329
G1 X290.38 Y156.015 E68.17964
G1 X290.434 Y156.488 E68.19864
G1 X290.506 Y157.514 E68.23969
G1 X290.578 Y158.873 E68.29401
G1 X290.604 Y159.525 E68.32005
G1 X290.59 Y160.186 E68.34644
G1 X290.532 Y160.65 E68.3651
G1 X290.331 Y161.844 E68.41343
G1 X290.116 Y162.983 E68.45969
G1 X289.978 Y163.66 E68.48727
G1 X289.806 Y164.299 E68.51368
G1 X289.643 Y164.728 E68.532
G1 X289.204 Y165.75 E68.57639
G1 X288.668 Y166.931 E68.62816
G1 X288.401 Y167.5 E68.65324
G1 X288.084 Y168.081 E68.67966
G1 X287.819 Y168.467 E68.69834
G1 X287.156 Y169.348 E68.74235
G1 X286.335 Y170.393 E68.79539
G1 X285.935 Y170.887 E68.82076
G1 X285.488 Y171.375 E68.84717
G1 X285.148 Y171.678 E68.86535
G1 X284.208 Y172.446 E68.9138
G1 X283.283 Y173.171 E68.96071
G1 X282.756 Y173.573 E68.98716
G1 X282.206 Y173.942 E69.0136
G1 X281.796 Y174.16 E69.03213
G1 X280.684 Y174.691 E69.08131
G1 X279.669 Y175.15 E69.12577
G1 X279.013 Y175.437 E69.15435
G1 X278.55 Y175.615 E69.17415
G1 X277.592 Y175.933 E69.21444
G1 X176.778 Y207.719 E73.4334
G1 X176.155 Y207.906 E73.45936
G1 X175.573 Y208.062 E73.48341
G1 X174.598 Y208.29 E73.52338
G1 X174.038 Y208.413 E73.54626
G1 X173.388 Y208.516 E73.57253
G1 X172.33 Y208.618 E73.61495
G1 X172.013 Y208.642 E73.62764
G1 X171.276 Y208.688 E73.65711
G1 X170.503 Y208.708 E73.68797
G1 X129.675 Y208.707 E75.31751
G1 X128.97 Y208.697 E75.34565
G1 X128.121 Y208.653 E75.37958
G1 X127.506 Y208.606 E75.40419
G1 X126.806 Y208.542 E75.43225
G1 X126.168 Y208.446 E75.458
G1 X125.124 Y208.225 E75.50059
G1 X124.947 Y208.185 E75.50783
G1 X124.12 Y207.981 E75.54183
G1 X123.342 Y207.757 E75.57414
G1 X22.195 Y175.866 E79.80705
G1 X21.558 Y175.655 E79.83383
G1 X21.105 Y175.483 E79.85317
G1 X20.16 Y175.073 E79.89428
G1 X18.946 Y174.523 E79.94748
G1 X18.341 Y174.239 E79.97415
G1 X17.76 Y173.922 E80.00057
G1 X17.379 Y173.66 E80.01902
G1 X16.495 Y172.996 E80.06315
G1 X15.488 Y172.207 E80.11421
G1 X14.958 Y171.779 E80.1414
G1 X14.469 Y171.333 E80.16781
G1 X14.164 Y170.991 E80.1861
G1 X13.413 Y170.074 E80.23341
G1 X12.663 Y169.118 E80.28191
G1 X12.269 Y168.602 E80.30782
G1 X11.899 Y168.052 E80.33427
G1 X11.684 Y167.649 E80.35251
G1 X11.208 Y166.658 E80.39638
G1 X10.705 Y165.553 E80.44484
G1 X10.402 Y164.859 E80.47507
G1 X10.174 Y164.238 E80.50147
G1 X10.063 Y163.8 E80.5195
G1 X9.84 Y162.743 E80.56262
G1 X9.59 Y161.427 E80.61608
G1 X9.48 Y160.792 E80.6418
G1 X9.407 Y160.135 E80.66819
G1 X9.403 Y159.682 E80.68627
G1 X9.443 Y158.468 E80.73475
G1 X9.509 Y157.235 E80.78403
G1 X9.551 Y156.623 E80.80851
G1 X9.603 Y156.156 E80.82727
G1 X9.758 Y155.169 E80.86714
G1 X18.271 Y106.398 E82.84313
G1 X18.403 Y105.698 E82.87156
G1 X18.549 Y105.107 E82.89586
G1 X18.768 Y104.394 E82.92563
G1 X19.417 Y102.387 E83.00982
G1 X19.633 Y101.756 E83.03644
G1 X19.885 Y101.144 E83.06285
G1 X20.165 Y100.636 E83.086
G1 X20.548 Y100.043 E83.11418
G1 X21.787 Y98.2 E83.20281
G1 X22.183 Y97.63 E83.23052
G1 X22.592 Y97.111 E83.25689
G1 X23.008 Y96.692 E83.28045
G1 X23.155 Y96.561 E83.28831
G1 X23.638 Y96.145 E83.31376
G1 X25.211 Y94.823 E83.39577
G1 X25.779 Y94.36 E83.42501
G1 X26.316 Y93.974 E83.45141
G1 X26.79 Y93.707 E83.47312
G1 X27 Y93.604 E83.48246
G1 X27.592 Y93.331 E83.50848
G1 X29.458 Y92.5 E83.59
G1 X30.132 Y92.211 E83.61927
G1 X30.755 Y91.988 E83.64568
M205 X10 Y10
G0 F6000 X30.863 Y92.29
M205 X8 Y8
G1 F1200 X31.379 Y92.169 E83.66684
G1 X31.581 Y92.134 E83.67502
G1 X32.179 Y92.042 E83.69917
G1 X34.242 Y91.753 E83.78231
G1 X34.954 Y91.663 E83.81095
G1 X35.599 Y91.619 E83.83676
G1 X36.166 Y91.612 E83.85939
G1 X263.692 Y91.612 E92.94044
G1 X264.463 Y91.623 E92.97122
G1 X265.078 Y91.666 E92.99582
G1 X265.775 Y91.755 E93.02387
G1 X267.805 Y92.041 E93.10569
G1 X268.479 Y92.145 E93.13291
G1 X269.399 Y92.376 E93.17077
G1 X269.811 Y92.533 E93.18837
G1 X270.435 Y92.802 E93.21549
