;FLAVOR:Marlin
;TIME:231
;Filament used: 0.0711566m
;Layer height: 0.2
;MINX:140.688
;MINY:144.242
;MINZ:0.3
;MAXX:160.788
;MAXY:161.592
;MAXZ:5.575
;Generated with Cura_SteamEngine 4.12.1
M82 ;absolute extrusion mode
G21                                        ; metric values 
G90                                        ; absolute positioning 
M82                                        ; set extruder to absolute mode 
M107                                       ; start with the fan off 
M140 S60           ; Start heating the bed 
G4 S60                                     ; wait 1 minute 
M104 S210         ; start heating the hot end 
M190 S60           ; wait for bed 
M109 S210         ; wait for hotend 
M300 S1000 P500                            ; BEEP heating done 
G28 X0 Y10 Z0                              ; move X/Y to min endstops 
M420 S1                                    ; Enable leveling 
M420 Z2.0                                  ; Set leveling fading height to 2 mm 
G0 Z0.15                                   ; lift nozzle a bit 
G92 E0                                     ; zero the extruded length 
G1 X50 E25 F500                            ; Extrude 25mm of filament in a 5cm line. 
G92 E0                                     ; zero the extruded length again 
G1 E-2 F500                                ; Retract a little 
G1 X120 F4000                              ; Quickly wipe away from the filament line`
G92 E0
G92 E0
G1 F1500 E-6
;LAYER_COUNT:27
;LAYER:0
M106 S76.5
M205 X10 Y10
G1 F600 Z0.375
G0 F6000 X142.629 Y146.303 Z0.375
M205 X8 Y8
;TYPE:SKIRT
G1 F600 Z0.3
G1 F1500 E0
G1 F1200 X143.172 Y145.804 E0.03679
G1 X143.765 Y145.367 E0.07354
G1 X144.402 Y144.996 E0.11032
G1 X145.076 Y144.697 E0.14711
G1 X145.778 Y144.472 E0.18388
G1 X146.501 Y144.324 E0.2207
G1 X147.306 Y144.254 E0.26102
G1 X147.818 Y144.242 E0.28657
G1 X153.281 Y144.242 E0.55912
G1 X154.076 Y144.253 E0.59878
G1 X154.812 Y144.303 E0.63559
G1 X155.538 Y144.433 E0.67238
G1 X156.245 Y144.641 E0.70915
G1 X156.926 Y144.924 E0.74594
G1 X157.572 Y145.279 E0.78272
G1 X158.176 Y145.702 E0.81951
G1 X158.731 Y146.188 E0.85631
G1 X159.229 Y146.731 E0.89307
G1 X159.666 Y147.325 E0.92986
G1 X160.036 Y147.962 E0.96661
G1 X160.335 Y148.636 E1.0034
G1 X160.56 Y149.339 E1.04022
G1 X160.706 Y150.061 E1.07697
G1 X160.776 Y150.861 E1.11704
G1 X160.788 Y151.372 E1.14254
G1 X160.787 Y154.14 E1.28064
G1 X160.778 Y154.867 E1.31691
G1 X160.729 Y155.603 E1.35371
G1 X160.601 Y156.329 E1.39049
G1 X160.395 Y157.037 E1.42727
G1 X160.113 Y157.718 E1.46405
G1 X159.759 Y158.365 E1.50084
G1 X159.337 Y158.97 E1.53764
G1 X158.853 Y159.525 E1.57438
G1 X158.311 Y160.025 E1.61117
G1 X157.718 Y160.463 E1.64795
G1 X157.081 Y160.834 E1.68473
G1 X156.407 Y161.135 E1.72156
G1 X155.705 Y161.36 E1.75833
G1 X154.983 Y161.508 E1.7951
G1 X154.17 Y161.58 E1.83582
G1 X153.658 Y161.592 E1.86137
G1 X148.107 Y161.591 E2.13831
G1 X147.409 Y161.582 E2.17314
G1 X146.674 Y161.533 E2.20989
G1 X145.948 Y161.404 E2.24668
G1 X145.24 Y161.198 E2.28347
G1 X144.559 Y160.915 E2.32026
G1 X143.912 Y160.561 E2.35705
G1 X143.308 Y160.139 E2.39381
G1 X142.752 Y159.654 E2.43062
G1 X142.253 Y159.112 E2.46738
G1 X141.815 Y158.519 E2.50416
G1 X141.444 Y157.882 E2.54093
G1 X141.144 Y157.208 E2.57774
G1 X140.919 Y156.506 E2.61452
G1 X140.771 Y155.784 E2.65129
G1 X140.699 Y154.967 E2.69221
G1 X140.688 Y154.45 E2.71801
G1 X140.689 Y151.624 E2.859
G1 X140.698 Y150.959 E2.89218
G1 X140.748 Y150.223 E2.92898
G1 X140.877 Y149.498 E2.96572
G1 X141.084 Y148.79 E3.00252
G1 X141.366 Y148.109 E3.03929
G1 X141.721 Y147.462 E3.07611
G1 X142.143 Y146.858 E3.11287
G1 X142.629 Y146.303 E3.14968
M205 X10 Y10
G0 F6000 X143.021 Y146.477
M205 X8 Y8
G1 F1200 X143.559 Y146.006 E3.18535
G1 X144.147 Y145.598 E3.22105
G1 X144.776 Y145.258 E3.25673
G1 X145.44 Y144.991 E3.29243
G1 X146.129 Y144.799 E3.32812
G1 X146.835 Y144.685 E3.36379
G1 X147.639 Y144.645 E3.40396
G1 X147.818 Y144.642 E3.41289
G1 X153.281 Y144.642 E3.68544
G1 X154.071 Y144.653 E3.72485
G1 X154.784 Y144.703 E3.76051
G1 X155.488 Y144.832 E3.79622
G1 X156.172 Y145.04 E3.83189
G1 X156.829 Y145.322 E3.86756
G1 X157.451 Y145.676 E3.90326
G1 X158.029 Y146.097 E3.93894
G1 X158.557 Y146.58 E3.97464
G1 X159.027 Y147.118 E4.01028
G1 X159.435 Y147.706 E4.04599
G1 X159.774 Y148.336 E4.08168
G1 X160.041 Y148.999 E4.11734
G1 X160.232 Y149.689 E4.15306
G1 X160.345 Y150.395 E4.18873
G1 X160.385 Y151.192 E4.22854
G1 X160.388 Y151.372 E4.23752
G1 X160.388 Y154.135 E4.37537
G1 X160.379 Y154.862 E4.41164
G1 X160.33 Y155.576 E4.44735
G1 X160.202 Y156.28 E4.48304
G1 X159.996 Y156.965 E4.51873
G1 X159.715 Y157.622 E4.55438
G1 X159.362 Y158.245 E4.59011
G1 X158.942 Y158.824 E4.62579
G1 X158.46 Y159.352 E4.66146
G1 X157.923 Y159.824 E4.69713
G1 X157.335 Y160.232 E4.73283
G1 X156.706 Y160.573 E4.76853
G1 X156.043 Y160.841 E4.80421
G1 X155.354 Y161.033 E4.83989
G1 X154.648 Y161.148 E4.87558
G1 X153.837 Y161.189 E4.91609
G1 X153.658 Y161.192 E4.92502
G1 X148.112 Y161.191 E5.20171
G1 X147.414 Y161.182 E5.23654
G1 X146.701 Y161.133 E5.27219
G1 X145.997 Y161.005 E5.30789
G1 X145.312 Y160.799 E5.34358
G1 X144.655 Y160.517 E5.37925
G1 X144.033 Y160.164 E5.41493
G1 X143.454 Y159.744 E5.45062
G1 X142.925 Y159.262 E5.48632
G1 X142.454 Y158.724 E5.52199
G1 X142.046 Y158.137 E5.55766
G1 X141.706 Y157.507 E5.59338
G1 X141.438 Y156.844 E5.62905
G1 X141.246 Y156.155 E5.66474
G1 X141.132 Y155.449 E5.70042
G1 X141.09 Y154.623 E5.74168
G1 X141.088 Y154.45 E5.75031
G1 X141.089 Y151.629 E5.89105
G1 X141.098 Y150.964 E5.92423
G1 X141.147 Y150.251 E5.95989
G1 X141.276 Y149.547 E5.99559
G1 X141.483 Y148.863 E6.03125
G1 X141.765 Y148.205 E6.06696
G1 X142.118 Y147.583 E6.10264
G1 X142.538 Y147.005 E6.13829
G1 X143.021 Y146.477 E6.17399
M205 X10 Y10
G0 F6000 X143.412 Y146.656
M205 X8 Y8
G1 F1200 X143.946 Y146.215 E6.20854
G1 X144.527 Y145.838 E6.24309
G1 X145.147 Y145.53 E6.27763
G1 X145.799 Y145.296 E6.31219
G1 X146.473 Y145.139 E6.34672
G1 X147.329 Y145.053 E6.38964
G1 X147.818 Y145.042 E6.41404
G1 X153.281 Y145.042 E6.68659
G1 X154.065 Y145.053 E6.72571
G1 X154.756 Y145.102 E6.76027
G1 X155.436 Y145.232 E6.79481
G1 X156.097 Y145.438 E6.82935
G1 X156.73 Y145.72 E6.86393
G1 X157.326 Y146.072 E6.89846
G1 X157.877 Y146.491 E6.93299
G1 X158.377 Y146.971 E6.96757
G1 X158.818 Y147.505 E7.00213
G1 X159.195 Y148.086 E7.03668
G1 X159.502 Y148.707 E7.07124
G1 X159.735 Y149.359 E7.10578
G1 X159.892 Y150.033 E7.14031
G1 X159.977 Y150.883 E7.18293
G1 X159.988 Y151.372 E7.20733
G1 X159.988 Y154.13 E7.34493
G1 X159.979 Y154.857 E7.3812
G1 X159.93 Y155.548 E7.41576
G1 X159.802 Y156.229 E7.45033
G1 X159.597 Y156.89 E7.48486
G1 X159.317 Y157.523 E7.51939
G1 X158.965 Y158.12 E7.55397
G1 X158.548 Y158.673 E7.58852
G1 X158.069 Y159.173 E7.62306
G1 X157.536 Y159.615 E7.65761
G1 X156.955 Y159.993 E7.69219
G1 X156.335 Y160.301 E7.72673
G1 X155.684 Y160.536 E7.76126
G1 X155.009 Y160.694 E7.79585
G1 X154.147 Y160.781 E7.83907
G1 X153.658 Y160.792 E7.86347
G1 X148.118 Y160.792 E8.13986
G1 X147.42 Y160.783 E8.17469
G1 X146.729 Y160.734 E8.20925
G1 X146.048 Y160.605 E8.24383
G1 X145.387 Y160.4 E8.27836
G1 X144.754 Y160.119 E8.31291
G1 X144.157 Y159.768 E8.34746
G1 X143.605 Y159.35 E8.382
G1 X143.105 Y158.871 E8.41655
G1 X142.663 Y158.337 E8.45113
G1 X142.286 Y157.757 E8.48565
G1 X141.978 Y157.136 E8.52023
G1 X141.743 Y156.485 E8.55476
G1 X141.586 Y155.81 E8.58933
G1 X141.499 Y154.945 E8.63271
G1 X141.488 Y154.45 E8.65741
G1 X141.489 Y151.635 E8.79785
G1 X141.498 Y150.97 E8.83103
G1 X141.547 Y150.279 E8.86559
G1 X141.675 Y149.599 E8.90011
G1 X141.882 Y148.937 E8.93471
G1 X142.163 Y148.304 E8.96927
G1 X142.515 Y147.708 E9.0038
G1 X142.933 Y147.156 E9.03834
G1 X143.412 Y146.656 E9.07289
M205 X10 Y10
G0 F6000 X143.327 Y147.313
M205 X8 Y8
G1 F1200 X143.802 Y146.843 E9.10623
G1 X144.331 Y146.432 E9.13965
G1 X144.904 Y146.087 E9.17302
G1 X145.515 Y145.814 E9.2064
G1 X146.153 Y145.615 E9.23975
G1 X146.811 Y145.493 E9.27313
G1 X147.34 Y145.453 E9.2996
G1 X147.818 Y145.442 E9.32346
G1 X153.281 Y145.442 E9.59601
G1 X154.059 Y145.453 E9.63482
G1 X154.726 Y145.502 E9.66819
G1 X155.383 Y145.631 E9.70159
G1 X156.019 Y145.837 E9.73495
G1 X156.627 Y146.118 E9.76836
G1 X157.196 Y146.468 E9.80169
G1 X157.72 Y146.885 E9.8351
G1 X158.19 Y147.361 E9.86847
G1 X158.6 Y147.889 E9.90183
G1 X158.945 Y148.463 E9.93524
G1 X159.218 Y149.074 E9.96863
G1 X159.416 Y149.713 E10.002
G1 X159.537 Y150.371 E10.03538
G1 X159.577 Y150.895 E10.0616
G1 X159.588 Y151.372 E10.0854
G1 X159.588 Y154.125 E10.22275
G1 X159.579 Y154.852 E10.25902
G1 X159.53 Y155.52 E10.29244
G1 X159.403 Y156.176 E10.32577
G1 X159.198 Y156.813 E10.35916
G1 X158.919 Y157.421 E10.39253
G1 X158.569 Y157.991 E10.4259
G1 X158.153 Y158.516 E10.45932
G1 X157.678 Y158.987 E10.49269
G1 X157.151 Y159.398 E10.52604
G1 X156.578 Y159.744 E10.55943
G1 X155.968 Y160.018 E10.59279
G1 X155.329 Y160.218 E10.6262
G1 X154.671 Y160.34 E10.65959
G1 X154.136 Y160.381 E10.68636
G1 X153.658 Y160.392 E10.71021
G1 X148.123 Y160.392 E10.98635
G1 X147.425 Y160.383 E11.02118
G1 X146.758 Y160.334 E11.05454
G1 X146.101 Y160.206 E11.08794
G1 X145.464 Y160.001 E11.12132
G1 X144.856 Y159.721 E11.15472
G1 X144.286 Y159.371 E11.18809
G1 X143.762 Y158.955 E11.22147
G1 X143.291 Y158.48 E11.25484
G1 X142.88 Y157.952 E11.28822
G1 X142.535 Y157.379 E11.32159
G1 X142.261 Y156.769 E11.35496
G1 X142.061 Y156.13 E11.38836
G1 X141.94 Y155.472 E11.42174
G1 X141.899 Y154.934 E11.44866
G1 X141.888 Y154.45 E11.47281
G1 X141.889 Y151.64 E11.613
G1 X141.898 Y150.975 E11.64618
G1 X141.947 Y150.308 E11.67955
G1 X142.075 Y149.651 E11.71294
G1 X142.28 Y149.015 E11.74628
G1 X142.56 Y148.407 E11.77968
G1 X142.911 Y147.837 E11.81307
G1 X143.327 Y147.313 E11.84645
M205 X10 Y10
G0 F6000 X143.72 Y147.477
M205 X8 Y8
G1 F1200 X144.191 Y147.037 E11.87861
G1 X144.714 Y146.659 E11.9108
G1 X145.278 Y146.348 E11.94293
G1 X145.877 Y146.11 E11.97509
G1 X146.501 Y145.947 E12.00727
G1 X147.351 Y145.853 E12.04993
G1 X147.818 Y145.842 E12.07324
G1 X153.281 Y145.842 E12.34579
G1 X154.053 Y145.853 E12.38431
G1 X154.696 Y145.902 E12.41648
G1 X155.328 Y146.03 E12.44865
G1 X155.939 Y146.236 E12.48082
G1 X156.52 Y146.515 E12.51297
G1 X157.062 Y146.864 E12.54514
G1 X157.556 Y147.278 E12.57729
G1 X157.996 Y147.75 E12.60948
G1 X158.374 Y148.272 E12.64164
G1 X158.684 Y148.837 E12.67379
G1 X158.922 Y149.436 E12.70595
G1 X159.084 Y150.06 E12.73811
G1 X159.177 Y150.906 E12.78057
G1 X159.188 Y151.372 E12.80383
G1 X159.188 Y154.12 E12.94093
G1 X159.179 Y154.847 E12.9772
G1 X159.131 Y155.49 E13.00937
G1 X159.004 Y156.122 E13.04153
G1 X158.799 Y156.734 E13.07373
G1 X158.521 Y157.315 E13.10586
G1 X158.173 Y157.858 E13.13804
G1 X157.76 Y158.353 E13.1702
G1 X157.289 Y158.793 E13.20236
G1 X156.767 Y159.172 E13.23454
G1 X156.203 Y159.483 E13.26667
G1 X155.604 Y159.722 E13.29885
G1 X154.981 Y159.886 E13.33099
G1 X154.125 Y159.981 E13.37396
G1 X153.658 Y159.992 E13.39726
G1 X148.128 Y159.992 E13.67315
G1 X147.43 Y159.983 E13.70798
G1 X146.787 Y159.934 E13.74015
G1 X146.155 Y159.807 E13.77231
G1 X145.544 Y159.602 E13.80447
G1 X144.963 Y159.324 E13.8366
G1 X144.42 Y158.975 E13.8688
G1 X143.925 Y158.562 E13.90097
G1 X143.485 Y158.091 E13.93312
G1 X143.106 Y157.569 E13.96531
G1 X142.795 Y157.005 E13.99744
G1 X142.557 Y156.406 E14.0296
G1 X142.394 Y155.782 E14.06177
G1 X142.299 Y154.923 E14.10489
G1 X142.288 Y154.45 E14.12849
G1 X142.288 Y151.646 E14.26838
G1 X142.297 Y150.981 E14.30156
G1 X142.346 Y150.338 E14.33374
G1 X142.474 Y149.706 E14.36591
G1 X142.679 Y149.095 E14.39806
G1 X142.958 Y148.514 E14.43022
G1 X143.307 Y147.971 E14.46242
G1 X143.72 Y147.477 E14.49454
M205 X10 Y10
G1 F1500 E8.49454
G1 F600 Z0.375
;MESH:C64_to_CMX_v4.stl
G0 F6000 X152.988 Y153.792 Z0.375
M205 X8 Y8
;TYPE:WALL-INNER
G1 F600 Z0.3
G1 F1500 E14.49454
G1 F1200 X148.488 Y153.792 E14.71905
G1 X148.488 Y152.042 E14.80636
G1 X152.988 Y152.042 E15.03086
G1 X152.988 Y153.792 E15.11817
M205 X10 Y10
G0 F6000 X153.388 Y154.192
M205 X8 Y8
G1 F1200 X148.088 Y154.192 E15.38259
G1 X148.088 Y151.642 E15.50981
G1 X153.388 Y151.642 E15.77423
G1 X153.388 Y154.192 E15.90145
M205 X10 Y10
G0 F6000 X153.788 Y154.592
M205 X8 Y8
;TYPE:WALL-OUTER
G1 F1200 X147.688 Y154.592 E16.20578
G1 X147.688 Y151.242 E16.37291
G1 X153.788 Y151.242 E16.67724
G1 X153.788 Y154.592 E16.84437
M205 X10 Y10
G0 F6000 X153.588 Y154.592
G0 X153.348 Y154.152
G0 X152.598 Y153.402
M205 X8 Y8
;TYPE:SKIN
G1 F1200 X148.878 Y153.402 E17.02996
G1 X148.878 Y152.432 E17.07836
G1 X152.598 Y152.432 E17.26395
G1 X152.598 Y153.402 E17.31234
M205 X10 Y10
G0 F6000 X152.418 Y152.983
M205 X8 Y8
G1 F1200 X152.045 Y152.611 E17.33862
M205 X10 Y10
G0 F6000 X151.479 Y152.611
M205 X8 Y8
G1 F1200 X152.09 Y153.221 E17.3817
M205 X10 Y10
G0 F6000 X151.524 Y153.221
M205 X8 Y8
G1 F1200 X150.914 Y152.611 E17.42474
M205 X10 Y10
G0 F6000 X150.348 Y152.611
M205 X8 Y8
G1 F1200 X150.958 Y153.221 E17.46778
M205 X10 Y10
G0 F6000 X150.393 Y153.221
M205 X8 Y8
G1 F1200 X149.782 Y152.611 E17.51085
M205 X10 Y10
G0 F6000 X149.217 Y152.611
M205 X8 Y8
G1 F1200 X149.827 Y153.221 E17.55389
M205 X10 Y10
G0 F6000 X149.261 Y153.221
M104 S200
M205 X8 Y8
G1 F1200 X149.057 Y153.017 E17.56828
M205 X10 Y10
G1 F1500 E11.56828
G1 F600 Z0.375
;MESH:NONMESH
G0 F6000 X152.988 Y153.792 Z0.375
;TIME_ELAPSED:21.680476
;LAYER:1
M106 S127.5
;MESH:C64_to_CMX_v4.stl
G0 X152.988 Y153.792 Z0.575
M205 X8 Y8
;TYPE:WALL-INNER
G1 F600 Z0.5
G1 F1500 E17.56828
G1 F600 X148.488 Y153.792 E17.71795
G1 X148.488 Y152.042 E17.77616
G1 X149.249 Y152.042 E17.80147
G1 X149.398 Y152.192 E17.8085
G1 X152.078 Y152.192 E17.89764
G1 X152.227 Y152.042 E17.90467
G1 X152.988 Y152.042 E17.92998
G1 X152.988 Y153.792 E17.98819
M205 X10 Y10
G1 F1500 E11.98819
G1 F600 Z0.575
G0 F6000 X150.838 Y154.192 Z0.575
M205 X8 Y8
G1 F600 Z0.5
G1 F1500 E17.98819
G1 F600 X150.838 Y157.792 E18.10792
G1 X150.638 Y157.792 E18.11457
G1 X150.638 Y154.192 E18.17459
G1 X148.088 Y154.192 E18.25941
G1 X148.088 Y151.642 E18.34422
G1 X149.415 Y151.642 E18.38836
G1 X149.564 Y151.792 E18.39539
G1 X151.912 Y151.792 E18.47348
G1 X152.061 Y151.642 E18.48052
G1 X153.388 Y151.642 E18.52465
G1 X153.388 Y154.192 E18.60946
G1 X150.838 Y154.192 E18.69428
M205 X10 Y10
G0 F6000 X151.238 Y154.592
M205 X8 Y8
;TYPE:WALL-OUTER
G1 F600 X151.238 Y158.192 E18.81401
G1 X150.238 Y158.192 E18.84727
G1 X150.238 Y154.592 E18.96701
G1 X147.688 Y154.592 E19.05182
G1 X147.688 Y151.242 E19.16325
G1 X149.581 Y151.242 E19.22621
G1 X149.73 Y151.392 E19.23324
G1 X151.746 Y151.392 E19.30029
G1 X151.895 Y151.242 E19.30732
G1 X153.788 Y151.242 E19.37029
G1 X153.788 Y154.592 E19.48171
G1 X151.238 Y154.592 E19.56652
M205 X10 Y10
G0 F6000 X151.238 Y154.792
G0 X150.798 Y154.792
G1 F1500 E13.56652
G1 F600 Z0.575
G0 F6000 X152.598 Y153.402 Z0.575
M205 X8 Y8
;TYPE:SKIN
G1 F600 Z0.5
G1 F1500 E19.56652
G1 F600 X148.878 Y153.402 E19.69025
G1 X148.878 Y152.432 E19.72251
G1 X149.087 Y152.432 E19.72946
G1 X149.236 Y152.582 E19.73649
G1 X152.24 Y152.582 E19.83641
G1 X152.389 Y152.432 E19.84344
G1 X152.598 Y152.432 E19.85039
G1 X152.598 Y153.402 E19.88265
M205 X10 Y10
G0 F6000 X152.248 Y153.221
M205 X8 Y8
G1 F600 X152.417 Y153.052 E19.8906
M205 X10 Y10
G0 F6000 X152.143 Y152.761
M205 X8 Y8
G1 F600 X151.682 Y153.221 E19.91226
M205 X10 Y10
G0 F6000 X151.577 Y152.761
M205 X8 Y8
G1 F600 X151.117 Y153.221 E19.9339
M205 X10 Y10
G0 F6000 X151.011 Y152.761
M205 X8 Y8
G1 F600 X150.551 Y153.221 E19.95554
M205 X10 Y10
G0 F6000 X150.446 Y152.761
M205 X8 Y8
G1 F600 X149.985 Y153.221 E19.9772
M205 X10 Y10
