;FLAVOR:Marlin
;TIME:144
;Filament used: 0.107997m
;Layer height: 0.2
;MINX:124.368
;MINY:164.05
;MINZ:0.2
;MAXX:175.632
;MAXY:183.35
;MAXZ:1.675
;Generated with Cura_SteamEngine 4.12.1
M82 ;absolute extrusion mode
G21                                        ; metric values 
G90                                        ; absolute positioning 
M82                                        ; set extruder to absolute mode 
M107                                       ; start with the fan off 
M140 S60           ; Start heating the bed 
G4 S60                                     ; wait 1 minute 
M104 S210         ; start heating the hot end 
M190 S60           ; wait for bed 
M109 S210         ; wait for hotend 
M300 S1000 P500                            ; BEEP heating done 
G28 X0 Y10 Z0                              ; move X/Y to min endstops 
M420 S1                                    ; Enable leveling 
M420 Z2.0                                  ; Set leveling fading height to 2 mm 
G0 Z0.15                                   ; lift nozzle a bit 
G92 E0                                     ; zero the extruded length 
G1 X50 E25 F500                            ; Extrude 25mm of filament in a 5cm line. 
G92 E0                                     ; zero the extruded length again 
G1 E-2 F500                                ; Retract a little 
G1 X120 F4000                              ; Quickly wipe away from the filament line`
G92 E0
G92 E0
G1 F1500 E-6
;LAYER_COUNT:8
;LAYER:0
M106 S76.5
M205 X10 Y10
G1 F600 Z0.275
G0 F6000 X128.461 Y165.834 Z0.275
M205 X8 Y8
;TYPE:SKIRT
G1 F600 Z0.2
G1 F1500 E0
G1 F1200 X129.05 Y165.429 E0.02377
G1 X129.681 Y165.092 E0.04757
G1 X130.537 Y164.766 E0.07803
G1 X131.051 Y164.614 E0.09586
G1 X131.744 Y164.43 E0.11971
G1 X132.402 Y164.263 E0.14229
G1 X133.104 Y164.126 E0.16608
G1 X133.866 Y164.067 E0.1915
G1 X134.903 Y164.05 E0.22599
G1 X165.293 Y164.05 E1.23677
G1 X166.07 Y164.061 E1.26261
G1 X166.783 Y164.111 E1.28639
G1 X167.522 Y164.249 E1.31139
G1 X168.492 Y164.492 E1.34465
G1 X168.743 Y164.559 E1.35329
G1 X169.372 Y164.738 E1.37504
G1 X170.048 Y164.972 E1.39883
G1 X170.693 Y165.28 E1.42261
G1 X171.301 Y165.658 E1.44642
G1 X172.013 Y166.24 E1.477
G1 X172.395 Y166.605 E1.49458
G1 X172.924 Y167.134 E1.51946
G1 X173.4 Y167.625 E1.54221
G1 X173.869 Y168.166 E1.56602
G1 X174.274 Y168.755 E1.58979
G1 X174.61 Y169.386 E1.61357
G1 X174.932 Y170.232 E1.64368
G1 X175.084 Y170.746 E1.66151
G1 X175.266 Y171.427 E1.68495
G1 X175.437 Y172.101 E1.70808
G1 X175.574 Y172.803 E1.73187
G1 X175.632 Y173.516 E1.75566
G1 X175.61 Y174.231 E1.77945
G1 X175.448 Y175.205 E1.81229
G1 X175.192 Y176.245 E1.84792
G1 X175.136 Y176.458 E1.85524
G1 X174.965 Y177.062 E1.87612
G1 X174.732 Y177.739 E1.89993
G1 X174.425 Y178.385 E1.92372
G1 X174.048 Y178.992 E1.94749
G1 X173.46 Y179.713 E1.97843
G1 X173.095 Y180.095 E1.99601
G1 X172.578 Y180.612 E2.02032
G1 X172.086 Y181.091 E2.04316
G1 X171.547 Y181.56 E2.06693
G1 X170.958 Y181.967 E2.09074
G1 X170.328 Y182.305 E2.11452
G1 X169.459 Y182.636 E2.14545
G1 X168.949 Y182.786 E2.16313
G1 X168.256 Y182.97 E2.18697
G1 X167.598 Y183.137 E2.20955
G1 X166.896 Y183.274 E2.23334
G1 X166.134 Y183.333 E2.25876
G1 X165.097 Y183.35 E2.29326
G1 X134.613 Y183.349 E3.30716
G1 X133.931 Y183.339 E3.32985
G1 X133.218 Y183.289 E3.35362
G1 X132.481 Y183.151 E3.37856
G1 X131.508 Y182.908 E3.41191
G1 X131.257 Y182.841 E3.42055
G1 X130.628 Y182.662 E3.44231
G1 X129.952 Y182.428 E3.4661
G1 X129.307 Y182.12 E3.48987
G1 X128.699 Y181.742 E3.51368
G1 X127.987 Y181.16 E3.54427
G1 X127.605 Y180.795 E3.56184
G1 X127.075 Y180.265 E3.58677
G1 X126.603 Y179.779 E3.6093
G1 X126.134 Y179.239 E3.63309
G1 X125.728 Y178.65 E3.65689
G1 X125.391 Y178.019 E3.68068
G1 X125.061 Y177.15 E3.7116
G1 X124.915 Y176.652 E3.72886
G1 X124.73 Y175.96 E3.75268
G1 X124.563 Y175.303 E3.77523
G1 X124.426 Y174.601 E3.79902
G1 X124.368 Y173.888 E3.82281
G1 X124.39 Y173.173 E3.8466
G1 X124.551 Y172.198 E3.87947
G1 X124.807 Y171.157 E3.91513
G1 X124.862 Y170.95 E3.92225
G1 X125.031 Y170.35 E3.94298
G1 X125.263 Y169.673 E3.96678
G1 X125.569 Y169.027 E3.99056
G1 X125.945 Y168.419 E4.01434
G1 X126.524 Y167.705 E4.04491
G1 X126.91 Y167.3 E4.06352
G1 X127.44 Y166.77 E4.08845
G1 X127.921 Y166.303 E4.11075
G1 X128.461 Y165.834 E4.13454
M205 X10 Y10
G0 F6000 X128.723 Y166.137
M205 X8 Y8
G1 F1200 X129.296 Y165.748 E4.15757
G1 X129.91 Y165.427 E4.18061
G1 X130.652 Y165.149 E4.20697
G1 X131.154 Y165.001 E4.22438
G1 X131.842 Y164.817 E4.24806
G1 X132.5 Y164.65 E4.27064
G1 X133.18 Y164.519 E4.29367
G1 X133.872 Y164.467 E4.31676
G1 X134.903 Y164.45 E4.35105
G1 X165.293 Y164.45 E5.36183
G1 X166.064 Y164.461 E5.38747
G1 X166.755 Y164.511 E5.41052
G1 X167.425 Y164.638 E5.4332
G1 X168.389 Y164.878 E5.46624
G1 X168.633 Y164.944 E5.47465
G1 X169.262 Y165.123 E5.4964
G1 X169.916 Y165.351 E5.51943
G1 X170.54 Y165.652 E5.54248
G1 X171.124 Y166.024 E5.56551
G1 X171.739 Y166.531 E5.59202
G1 X172.113 Y166.887 E5.60919
G1 X172.637 Y167.413 E5.63388
G1 X173.113 Y167.904 E5.65663
G1 X173.565 Y168.428 E5.67964
G1 X173.955 Y169.001 E5.7027
G1 X174.275 Y169.615 E5.72573
G1 X174.55 Y170.348 E5.75177
G1 X174.698 Y170.849 E5.76914
G1 X174.879 Y171.525 E5.79242
G1 X175.05 Y172.199 E5.81554
G1 X175.181 Y172.879 E5.83858
G1 X175.233 Y173.57 E5.86163
G1 X175.205 Y174.262 E5.88466
G1 X175.06 Y175.109 E5.91324
G1 X174.804 Y176.149 E5.94886
G1 X174.751 Y176.349 E5.95575
G1 X174.58 Y176.953 E5.97662
G1 X174.353 Y177.608 E5.99968
G1 X174.053 Y178.232 E6.02271
G1 X173.682 Y178.817 E6.04575
G1 X173.17 Y179.438 E6.07252
G1 X172.813 Y179.813 E6.08974
G1 X172.299 Y180.325 E6.11387
G1 X171.807 Y180.804 E6.13671
G1 X171.284 Y181.258 E6.15974
G1 X170.712 Y181.648 E6.18277
G1 X170.099 Y181.97 E6.2058
G1 X169.344 Y182.252 E6.23261
G1 X168.846 Y182.399 E6.24988
G1 X168.158 Y182.583 E6.27356
G1 X167.5 Y182.75 E6.29614
G1 X166.82 Y182.881 E6.31917
G1 X166.128 Y182.933 E6.34226
G1 X165.097 Y182.95 E6.37655
G1 X134.619 Y182.949 E7.39025
G1 X133.937 Y182.939 E7.41294
G1 X133.246 Y182.889 E7.43598
G1 X132.578 Y182.763 E7.45859
G1 X131.611 Y182.522 E7.49174
G1 X131.367 Y182.456 E7.50015
G1 X130.738 Y182.277 E7.5219
G1 X130.084 Y182.049 E7.54493
G1 X129.46 Y181.748 E7.56798
G1 X128.876 Y181.376 E7.59101
G1 X128.261 Y180.869 E7.61751
G1 X127.887 Y180.513 E7.63469
G1 X127.362 Y179.986 E7.65943
G1 X126.89 Y179.5 E7.68196
G1 X126.437 Y178.976 E7.705
G1 X126.047 Y178.404 E7.72803
G1 X125.726 Y177.79 E7.75107
G1 X125.445 Y177.036 E7.77783
G1 X125.301 Y176.548 E7.79476
G1 X125.118 Y175.861 E7.8184
G1 X124.951 Y175.204 E7.84095
G1 X124.819 Y174.524 E7.86399
G1 X124.767 Y173.834 E7.887
G1 X124.795 Y173.142 E7.91004
G1 X124.94 Y172.293 E7.93869
G1 X125.196 Y171.252 E7.97434
G1 X125.247 Y171.058 E7.98101
G1 X125.416 Y170.458 E8.00175
G1 X125.642 Y169.804 E8.02476
G1 X125.941 Y169.179 E8.0478
G1 X126.311 Y168.594 E8.07083
G1 X126.816 Y167.979 E8.09729
G1 X127.192 Y167.582 E8.11548
G1 X127.718 Y167.057 E8.1402
G1 X128.199 Y166.59 E8.1625
G1 X128.723 Y166.137 E8.18553
M205 X10 Y10
G0 F6000 X128.985 Y166.441
M205 X8 Y8
G1 F1200 X129.541 Y166.068 E8.2078
G1 X130.136 Y165.764 E8.23003
G1 X130.767 Y165.532 E8.25239
G1 X131.258 Y165.387 E8.26941
G1 X131.94 Y165.205 E8.29289
G1 X132.598 Y165.038 E8.31547
G1 X133.256 Y164.913 E8.33775
G1 X133.879 Y164.867 E8.35852
G1 X134.903 Y164.85 E8.39259
G1 X165.293 Y164.85 E9.40336
G1 X166.058 Y164.861 E9.42881
G1 X166.725 Y164.91 E9.45105
G1 X167.328 Y165.026 E9.47148
G1 X168.286 Y165.265 E9.50432
G1 X168.524 Y165.329 E9.51251
G1 X169.153 Y165.508 E9.53427
G1 X169.784 Y165.729 E9.5565
G1 X170.385 Y166.024 E9.57877
G1 X170.946 Y166.388 E9.60101
G1 X171.464 Y166.822 E9.62349
G1 X171.83 Y167.17 E9.64029
G1 X172.35 Y167.691 E9.66477
G1 X172.826 Y168.182 E9.68752
G1 X173.262 Y168.689 E9.70976
G1 X173.634 Y169.245 E9.73201
G1 X173.938 Y169.841 E9.75426
G1 X174.167 Y170.463 E9.7763
G1 X174.311 Y170.953 E9.79329
G1 X174.491 Y171.624 E9.8164
G1 X174.662 Y172.298 E9.83952
G1 X174.788 Y172.955 E9.86177
G1 X174.834 Y173.622 E9.88401
G1 X174.8 Y174.291 E9.90629
G1 X174.672 Y175.014 E9.93071
G1 X174.416 Y176.054 E9.96634
G1 X174.366 Y176.24 E9.97274
G1 X174.195 Y176.844 E9.99362
G1 X173.975 Y177.476 E10.01588
G1 X173.681 Y178.077 E10.03813
G1 X173.317 Y178.639 E10.0604
G1 X172.879 Y179.164 E10.08314
G1 X172.53 Y179.53 E10.09996
G1 X172.02 Y180.038 E10.1239
G1 X171.528 Y180.517 E10.14674
G1 X171.022 Y180.955 E10.169
G1 X170.467 Y181.328 E10.19124
G1 X169.872 Y181.633 E10.21348
G1 X169.23 Y181.869 E10.23623
G1 X168.742 Y182.013 E10.25315
G1 X168.06 Y182.195 E10.27663
G1 X167.402 Y182.362 E10.29921
G1 X166.744 Y182.487 E10.32149
G1 X166.121 Y182.533 E10.34226
G1 X165.097 Y182.55 E10.37633
G1 X134.625 Y182.549 E11.38983
G1 X133.943 Y182.539 E11.41252
G1 X133.276 Y182.49 E11.43476
G1 X132.674 Y182.375 E11.45514
G1 X131.714 Y182.135 E11.48806
G1 X131.476 Y182.071 E11.49625
G1 X130.847 Y181.892 E11.51801
G1 X130.216 Y181.671 E11.54024
G1 X129.615 Y181.376 E11.56251
G1 X129.054 Y181.012 E11.58475
G1 X128.536 Y180.578 E11.60723
G1 X128.17 Y180.23 E11.62403
G1 X127.649 Y179.708 E11.64856
G1 X127.177 Y179.222 E11.67109
G1 X126.74 Y178.715 E11.69335
G1 X126.367 Y178.159 E11.71562
G1 X126.063 Y177.563 E11.73787
G1 X125.828 Y176.922 E11.76058
G1 X125.688 Y176.445 E11.77712
G1 X125.506 Y175.763 E11.80059
G1 X125.339 Y175.106 E11.82314
G1 X125.213 Y174.448 E11.84542
G1 X125.166 Y173.781 E11.86766
G1 X125.2 Y173.113 E11.88991
G1 X125.328 Y172.389 E11.91436
G1 X125.584 Y171.348 E11.95002
G1 X125.632 Y171.167 E11.95625
G1 X125.801 Y170.567 E11.97698
G1 X126.02 Y169.935 E11.99922
G1 X126.314 Y169.333 E12.02151
G1 X126.677 Y168.771 E12.04376
G1 X127.108 Y168.253 E12.06617
G1 X127.475 Y167.865 E12.08394
G1 X127.997 Y167.344 E12.10847
G1 X128.478 Y166.877 E12.13076
G1 X128.985 Y166.441 E12.153
M205 X10 Y10
G0 F6000 X129.246 Y166.745
M205 X8 Y8
G1 F1200 X129.784 Y166.389 E12.17446
G1 X130.361 Y166.102 E12.19589
G1 X130.882 Y165.915 E12.21431
G1 X131.361 Y165.774 E12.23091
G1 X132.039 Y165.593 E12.25425
G1 X132.697 Y165.426 E12.27683
G1 X133.33 Y165.306 E12.29826
G1 X133.886 Y165.267 E12.3168
G1 X134.903 Y165.25 E12.35063
G1 X165.293 Y165.25 E13.36141
G1 X166.052 Y165.261 E13.38665
G1 X166.695 Y165.31 E13.4081
G1 X167.232 Y165.414 E13.42629
G1 X168.183 Y165.651 E13.45889
G1 X168.414 Y165.714 E13.46685
G1 X169.043 Y165.893 E13.48861
G1 X169.651 Y166.107 E13.51004
G1 X170.228 Y166.395 E13.53149
G1 X170.765 Y166.753 E13.55296
G1 X171.19 Y167.113 E13.57148
G1 X171.547 Y167.453 E13.58788
G1 X172.063 Y167.97 E13.61218
G1 X172.539 Y168.461 E13.63492
G1 X172.958 Y168.95 E13.65634
G1 X173.313 Y169.488 E13.67778
G1 X173.599 Y170.066 E13.69923
G1 X173.784 Y170.579 E13.71736
G1 X173.925 Y171.057 E13.73394
G1 X174.103 Y171.722 E13.75684
G1 X174.274 Y172.396 E13.77996
G1 X174.394 Y173.03 E13.80143
G1 X174.434 Y173.673 E13.82285
G1 X174.394 Y174.317 E13.84431
G1 X174.283 Y174.918 E13.86464
G1 X174.027 Y175.958 E13.90026
G1 X173.981 Y176.132 E13.90625
G1 X173.81 Y176.736 E13.92713
G1 X173.597 Y177.344 E13.94856
G1 X173.309 Y177.921 E13.97001
G1 X172.953 Y178.458 E13.99143
G1 X172.588 Y178.889 E14.01022
G1 X172.247 Y179.247 E14.02666
G1 X171.741 Y179.752 E14.05044
G1 X171.249 Y180.231 E14.07328
G1 X170.761 Y180.651 E14.09469
G1 X170.223 Y181.008 E14.11617
G1 X169.646 Y181.295 E14.1376
G1 X169.115 Y181.486 E14.15637
G1 X168.639 Y181.626 E14.17287
G1 X167.961 Y181.807 E14.19621
G1 X167.303 Y181.974 E14.21879
G1 X166.67 Y182.094 E14.24022
G1 X166.114 Y182.133 E14.25876
G1 X165.097 Y182.15 E14.29259
G1 X134.631 Y182.149 E15.30589
G1 X133.949 Y182.139 E15.32858
G1 X133.306 Y182.09 E15.35003
G1 X132.771 Y181.986 E15.36816
G1 X131.817 Y181.749 E15.40085
G1 X131.586 Y181.686 E15.40881
G1 X130.957 Y181.507 E15.43056
G1 X130.349 Y181.293 E15.452
G1 X129.772 Y181.005 E15.47345
G1 X129.235 Y180.647 E15.49492
G1 X128.81 Y180.287 E15.51344
G1 X128.453 Y179.947 E15.52984
G1 X127.936 Y179.429 E15.55418
G1 X127.464 Y178.943 E15.57671
G1 X127.044 Y178.453 E15.59818
G1 X126.688 Y177.916 E15.61961
G1 X126.402 Y177.338 E15.64106
G1 X126.211 Y176.807 E15.65983
G1 X126.074 Y176.341 E15.67598
G1 X125.893 Y175.664 E15.69929
G1 X125.726 Y175.007 E15.72184
G1 X125.606 Y174.374 E15.74327
G1 X125.566 Y173.73 E15.76473
G1 X125.605 Y173.087 E15.78615
G1 X125.716 Y172.484 E15.80654
G1 X125.972 Y171.443 E15.8422
G1 X126.017 Y171.275 E15.84798
G1 X126.186 Y170.675 E15.86872
G1 X126.399 Y170.067 E15.89014
G1 X126.685 Y169.489 E15.91159
G1 X127.041 Y168.952 E15.93302
G1 X127.399 Y168.527 E15.9515
G1 X127.758 Y168.148 E15.96887
G1 X128.276 Y167.631 E15.99321
G1 X128.757 Y167.164 E16.01551
G1 X129.246 Y166.745 E16.03693
M205 X10 Y10
G1 F1500 E10.03693
G1 F600 Z0.275
;MESH:spring.stl(6)
G0 F6000 X147.338 Y175.95 Z0.275
M205 X8 Y8
;TYPE:WALL-INNER
G1 F600 Z0.2
G1 F1500 E16.03693
G1 F1200 X147.528 Y175.491 E16.05345
G1 X147.982 Y175.945 E16.0748
G1 X147.338 Y175.95 E16.09622
M205 X10 Y10
G0 F6000 X146.836 Y176.116
M205 X8 Y8
G1 F1200 X147.319 Y174.95 E16.1382
G1 X147.153 Y174.549 E16.15263
G1 X147.436 Y174.832 E16.15517
G1 X148.189 Y175.586 E16.19061
G1 X149.561 Y175.954 E16.23786
G1 X150 Y176.071 E16.25297
G1 X150.439 Y175.954 E16.26808
G1 X151.811 Y175.586 E16.31532
G1 X152.846 Y174.551 E16.36401
G1 X152.681 Y174.95 E16.37837
G1 X153.164 Y176.116 E16.42034
G1 X153.729 Y176.35 E16.44068
G1 X153.164 Y176.35 E16.44592
G1 X150.455 Y176.35 E16.53603
G1 X150 Y176.35 E16.54891
G1 X149.545 Y176.35 E16.56179
G1 X146.836 Y176.35 E16.65189
G1 X146.271 Y176.35 E16.67068
G1 X146.836 Y176.116 E16.67746
M205 X10 Y10
G1 F1500 E10.67746
G1 F600 Z0.275
G0 F6000 X145.069 Y176.35 Z0.275
M205 X8 Y8
G1 F600 Z0.2
G1 F1500 E16.67746
G1 F1200 X144.504 Y176.35 E16.69625
G1 X142.052 Y176.35 E16.7778
G1 X134.077 Y176.35 E17.04305
G1 X132.686 Y175.978 E17.09094
G1 X131.722 Y175.014 E17.13629
G1 X131.579 Y174.478 E17.15474
G1 X131.371 Y173.7 E17.18152
G1 X131.578 Y172.923 E17.20827
G1 X131.722 Y172.386 E17.22676
G1 X132.686 Y171.422 E17.2721
G1 X134.077 Y171.05 E17.31999
G1 X145.741 Y171.05 E17.70794
G1 X148.834 Y171.05 E17.81081
G1 X149.399 Y171.05 E17.8296
G1 X148.834 Y171.284 E17.83638
G1 X148.351 Y172.45 E17.87836
G1 X148.517 Y172.851 E17.89279
G1 X148.234 Y172.568 E17.89532
G1 X147.477 Y171.812 E17.93091
G1 X145.741 Y171.35 E17.99066
G1 X133.905 Y171.35 E18.26042
G1 X132.6 Y171.774 E18.2966
G1 X132.006 Y172.592 E18.32597
G1 X131.736 Y172.964 E18.33533
G1 X131.736 Y173.7 E18.35121
G1 X131.736 Y174.436 E18.36706
G1 X132.005 Y174.807 E18.37637
G1 X132.6 Y175.626 E18.40579
G1 X133.905 Y176.05 E18.44692
G1 X142.052 Y176.05 E18.66649
G1 X143.431 Y175.628 E18.71445
G1 X144.064 Y174.847 E18.74789
G1 X144.021 Y174.95 E18.7516
G1 X144.504 Y176.116 E18.79358
G1 X145.069 Y176.35 E18.80035
M205 X10 Y10
G0 F6000 X144.003 Y175.95
M205 X8 Y8
G1 F1200 X143.685 Y175.95 E18.81093
G1 X143.895 Y175.691 E18.81541
G1 X144.003 Y175.95 E18.81866
M205 X10 Y10
G0 F6000 X144.81 Y175.81
M205 X8 Y8
;TYPE:WALL-OUTER
G1 F1200 X145.67 Y176.166 E18.84962
G1 X146.53 Y175.81 E18.88058
G1 X146.886 Y174.95 E18.91154
G1 X146.53 Y174.09 E18.94249
G1 X145.67 Y173.734 E18.97345
G1 X144.81 Y174.09 E19.00441
G1 X144.454 Y174.95 E19.03537
G1 X144.81 Y175.81 E19.06633
M205 X10 Y10
G0 F6000 X144.994 Y175.886
G0 X144.825 Y176.292
G1 F1500 E13.06633
G1 F600 Z0.275
G0 F6000 X155.997 Y175.95 Z0.275
M205 X8 Y8
;TYPE:WALL-INNER
G1 F600 Z0.2
G1 F1500 E19.06633
G1 F1200 X156.105 Y175.691 E19.07566
G1 X156.315 Y175.95 E19.0812
G1 X155.997 Y175.95 E19.08501
M205 X10 Y10
G0 F6000 X155.496 Y176.116
M205 X8 Y8
