;FLAVOR:Marlin
;TIME:19924
;Filament used: 47.9593m
;Layer height: 0.3
;MINX:3.052
;MINY:78.008
;MINZ:0.3
;MAXX:296.94
;MAXY:205.295
;MAXZ:13.575
;Generated with Cura_SteamEngine 4.12.1
M82 ;absolute extrusion mode
G21                                        ; metric values 
G90                                        ; absolute positioning 
M82                                        ; set extruder to absolute mode 
M107                                       ; start with the fan off 
M140 S60           ; Start heating the bed 
G4 S60                                     ; wait 1 minute 
M104 S210         ; start heating the hot end 
M190 S60           ; wait for bed 
M109 S210         ; wait for hotend 
M300 S1000 P500                            ; BEEP heating done 
G28 X0 Y10 Z0                              ; move X/Y to min endstops 
M420 S1                                    ; Enable leveling 
M420 Z2.0                                  ; Set leveling fading height to 2 mm 
G0 Z0.15                                   ; lift nozzle a bit 
G92 E0                                     ; zero the extruded length 
G1 X50 E25 F500                            ; Extrude 25mm of filament in a 5cm line. 
G92 E0                                     ; zero the extruded length again 
G1 E-2 F500                                ; Retract a little 
G1 X120 F4000                              ; Quickly wipe away from the filament line`
G92 E0
G92 E0
G1 F1500 E-6
;LAYER_COUNT:45
;LAYER:0
M106 S76.5
M205 X10 Y10
G1 F600 Z0.375
G0 F6000 X24.066 Y109.653 Z0.375
M205 X8 Y8
;TYPE:SKIRT
G1 F600 Z0.3
G1 F1500 E0
G1 F1200 X97.012 Y86.528 E3.81779
G1 X99.503 Y85.699 E3.94876
G1 X102.013 Y84.784 E4.08205
G1 X104.459 Y83.814 E4.21333
G1 X106.911 Y82.759 E4.3465
G1 X109.306 Y81.648 E4.47822
G1 X111.668 Y80.471 E4.60988
G1 X113.493 Y79.488 E4.71329
G1 X114.327 Y79.049 E4.76032
G1 X114.79 Y78.828 E4.78591
G1 X115.46 Y78.579 E4.82157
G1 X116.245 Y78.391 E4.86184
G1 X117.32 Y78.204 E4.91628
G1 X117.582 Y78.164 E4.9295
G1 X118.269 Y78.068 E4.96411
G1 X118.982 Y78.008 E4.99981
G1 X119.652 Y78.025 E5.03324
G1 X119.883 Y78.043 E5.0448
G1 X120.58 Y78.136 E5.07989
G1 X123.013 Y78.598 E5.20344
G1 X125.579 Y79.012 E5.33311
G1 X128.212 Y79.359 E5.46561
G1 X130.868 Y79.635 E5.59883
G1 X133.486 Y79.831 E5.72981
G1 X136.136 Y79.955 E5.86216
G1 X139.21 Y80.004 E6.01554
G1 X160.812 Y80.004 E7.09327
G1 X163.474 Y79.966 E7.22609
G1 X166.114 Y79.854 E7.35792
G1 X168.76 Y79.667 E7.49026
G1 X171.415 Y79.403 E7.62337
G1 X174.026 Y79.069 E7.7547
G1 X176.611 Y78.663 E7.88524
G1 X178.951 Y78.222 E8.00404
G1 X179.565 Y78.113 E8.03515
G1 X180.275 Y78.027 E8.07083
G1 X181.025 Y78.017 E8.10826
G1 X181.865 Y78.082 E8.15029
G1 X182.363 Y78.154 E8.17539
G1 X183.022 Y78.256 E8.20866
G1 X183.68 Y78.369 E8.24197
G1 X184.377 Y78.53 E8.27766
G1 X185.217 Y78.838 E8.3223
G1 X185.803 Y79.116 E8.35465
G1 X186.593 Y79.536 E8.39929
G1 X187.395 Y79.977 E8.44495
G1 X189.759 Y81.189 E8.57749
G1 X192.144 Y82.328 E8.70935
G1 X194.565 Y83.402 E8.84149
G1 X197.029 Y84.415 E8.9744
G1 X199.478 Y85.335 E9.10492
G1 X203.048 Y86.546 E9.29299
G1 X275.879 Y109.636 E13.10478
G1 X278.425 Y110.404 E13.23746
G1 X281.001 Y111.101 E13.3706
G1 X283.58 Y111.722 E13.50294
G1 X286.168 Y112.27 E13.63492
G1 X286.705 Y112.367 E13.66214
G1 X286.807 Y112.391 E13.66737
G1 X288.076 Y112.633 E13.73182
G1 X288.799 Y112.815 E13.76902
G1 X289.705 Y113.1 E13.8164
G1 X289.952 Y113.183 E13.8294
G1 X290.872 Y113.514 E13.87818
G1 X291.53 Y113.793 E13.91384
G1 X292.153 Y114.144 E13.94951
G1 X292.733 Y114.563 E13.98521
G1 X293.193 Y114.974 E14.01599
G1 X293.817 Y115.588 E14.05966
G1 X294.172 Y115.948 E14.08489
G1 X294.565 Y116.359 E14.11326
G1 X294.714 Y116.522 E14.12427
G1 X295.166 Y117.076 E14.15994
G1 X295.554 Y117.677 E14.19563
G1 X295.994 Y118.623 E14.24769
G1 X296.257 Y119.389 E14.28809
G1 X296.447 Y119.98 E14.31906
G1 X296.665 Y120.693 E14.35626
G1 X296.836 Y121.387 E14.39192
G1 X296.928 Y122.097 E14.42764
G1 X296.94 Y122.812 E14.46331
G1 X296.888 Y123.417 E14.49361
G1 X296.74 Y124.518 E14.54903
G1 X296.708 Y124.729 E14.55968
G1 X296.581 Y125.482 E14.59778
G1 X296.414 Y126.211 E14.63509
G1 X296.277 Y126.679 E14.65942
G1 X295.708 Y128.546 E14.75679
G1 X295.022 Y131.042 E14.88594
G1 X294.382 Y133.665 E15.02064
G1 X293.836 Y136.211 E15.15055
G1 X293.384 Y138.633 E15.27347
G1 X285.762 Y182.542 E17.49685
G1 X285.344 Y185.163 E17.62927
G1 X285.005 Y187.772 E17.76053
G1 X284.736 Y190.413 E17.89297
G1 X284.543 Y193.077 E18.02622
G1 X284.445 Y195.085 E18.12652
G1 X284.375 Y195.766 E18.16068
G1 X284.274 Y196.409 E18.19315
G1 X284.235 Y196.635 E18.20459
G1 X284.108 Y197.284 E18.23758
G1 X283.97 Y197.935 E18.27078
G1 X283.783 Y198.626 E18.3065
G1 X283.52 Y199.291 E18.34218
G1 X283.184 Y199.922 E18.37784
G1 X282.878 Y200.382 E18.40541
G1 X282.438 Y200.984 E18.44261
G1 X282.124 Y201.402 E18.46869
G1 X281.685 Y201.967 E18.50439
G1 X281.215 Y202.506 E18.54006
G1 X280.688 Y202.99 E18.57576
G1 X280.11 Y203.412 E18.61147
G1 X279.643 Y203.687 E18.6385
G1 X278.976 Y204.042 E18.6762
G1 X278.45 Y204.313 E18.70572
G1 X277.789 Y204.636 E18.74243
G1 X277.126 Y204.904 E18.7781
G1 X276.437 Y205.097 E18.8138
G1 X275.731 Y205.212 E18.84949
G1 X275.321 Y205.243 E18.87
G1 X274.425 Y205.28 E18.91474
G1 X273.538 Y205.295 E18.959
G1 X273.113 Y205.291 E18.9802
G1 X272.431 Y205.24 E19.01432
G1 X271.602 Y205.134 E19.05602
G1 X268.924 Y204.83 E19.19048
G1 X266.283 Y204.605 E19.32272
G1 X263.611 Y204.454 E19.45624
G1 X260.995 Y204.38 E19.5868
G1 X259.619 Y204.37 E19.65546
G1 X40.321 Y204.371 E30.59628
G1 X37.659 Y204.409 E30.7291
G1 X35.017 Y204.521 E30.86103
G1 X32.375 Y204.708 E30.99317
G1 X29.698 Y204.974 E31.12738
G1 X28.012 Y205.181 E31.21213
G1 X27.705 Y205.221 E31.22757
G1 X27.133 Y205.271 E31.25622
G1 X26.371 Y205.295 E31.29425
G1 X26.088 Y205.292 E31.30837
G1 X25.441 Y205.277 E31.34066
G1 X24.731 Y205.25 E31.37611
G1 X24.019 Y205.183 E31.41179
G1 X23.319 Y205.037 E31.44746
G1 X22.639 Y204.814 E31.48317
G1 X21.841 Y204.455 E31.52682
G1 X21.65 Y204.362 E31.53742
G1 X21.002 Y204.031 E31.57372
G1 X20.378 Y203.7 E31.60896
G1 X19.766 Y203.33 E31.64464
G1 X19.199 Y202.894 E31.68032
G1 X18.72 Y202.436 E31.71339
G1 X18.687 Y202.401 E31.71579
G1 X18.285 Y201.931 E31.74664
G1 X17.833 Y201.347 E31.78349
G1 X17.521 Y200.93 E31.80947
G1 X17.128 Y200.393 E31.84267
G1 X16.739 Y199.793 E31.87834
G1 X16.419 Y199.153 E31.91404
G1 X16.172 Y198.482 E31.94971
G1 X16.031 Y197.936 E31.97785
G1 X15.857 Y197.106 E32.02016
G1 X15.772 Y196.666 E32.04252
G1 X15.649 Y195.979 E32.07733
G1 X15.557 Y195.177 E32.11761
G1 X15.419 Y192.468 E32.25294
G1 X15.211 Y189.837 E32.38461
G1 X14.927 Y187.198 E32.51703
G1 X14.571 Y184.589 E32.6484
G1 X14.237 Y182.536 E32.75217
G1 X6.616 Y138.633 E34.97525
G1 X6.118 Y135.988 E35.10953
G1 X5.555 Y133.402 E35.24157
G1 X4.932 Y130.88 E35.37118
G1 X3.924 Y127.321 E35.55572
G1 X3.636 Y126.376 E35.60501
G1 X3.457 Y125.63 E35.64328
G1 X3.254 Y124.486 E35.70125
G1 X3.221 Y124.277 E35.7118
G1 X3.114 Y123.531 E35.7494
G1 X3.052 Y122.818 E35.78511
G1 X3.07 Y122.103 E35.82079
G1 X3.168 Y121.394 E35.8565
G1 X3.316 Y120.792 E35.88743
G1 X3.62 Y119.773 E35.94048
G1 X3.687 Y119.562 E35.95152
G1 X3.943 Y118.801 E35.99158
G1 X4.209 Y118.137 E36.02727
G1 X4.547 Y117.507 E36.06294
G1 X5.157 Y116.668 E36.11469
G1 X5.824 Y115.951 E36.16354
G1 X6.312 Y115.459 E36.19812
G1 X6.795 Y114.983 E36.23195
G1 X7.331 Y114.51 E36.26761
G1 X7.917 Y114.1 E36.30329
G1 X8.546 Y113.758 E36.33901
G1 X9.123 Y113.518 E36.37019
G1 X10.228 Y113.121 E36.42877
G1 X10.428 Y113.053 E36.43931
G1 X11.067 Y112.847 E36.4728
G1 X11.811 Y112.653 E36.51116
G1 X12.234 Y112.569 E36.53268
G1 X14.189 Y112.205 E36.63189
G1 X16.758 Y111.65 E36.76302
G1 X19.337 Y111.018 E36.89549
G1 X21.915 Y110.307 E37.02891
G1 X24.066 Y109.653 E37.14107
M205 X10 Y10
G0 F6000 X24.216 Y110.026
M205 X8 Y8
G1 F1200 X97.051 Y86.936 E40.95305
G1 X99.661 Y86.067 E41.09029
G1 X102.149 Y85.16 E41.22241
G1 X104.628 Y84.177 E41.35546
G1 X107.058 Y83.132 E41.48743
G1 X109.488 Y82.004 E41.62108
G1 X111.846 Y80.83 E41.7525
G1 X113.679 Y79.842 E41.85639
G1 X114.513 Y79.403 E41.90341
G1 X114.949 Y79.195 E41.92751
G1 X115.599 Y78.955 E41.96208
G1 X116.314 Y78.785 E41.99874
G1 X117.382 Y78.599 E42.05283
G1 X117.638 Y78.56 E42.06575
G1 X118.325 Y78.464 E42.10035
G1 X119.015 Y78.408 E42.13489
G1 X119.621 Y78.424 E42.16513
G1 X119.852 Y78.442 E42.17669
G1 X120.506 Y78.529 E42.20961
G1 X122.912 Y78.986 E42.33179
G1 X125.569 Y79.414 E42.46606
G1 X128.155 Y79.756 E42.5962
G1 X130.83 Y80.033 E42.73037
G1 X133.476 Y80.231 E42.86275
G1 X136.111 Y80.354 E42.99435
G1 X139.203 Y80.404 E43.14863
G1 X160.818 Y80.404 E44.22701
G1 X163.461 Y80.367 E44.35888
G1 X166.161 Y80.252 E44.49371
G1 X168.789 Y80.066 E44.62515
G1 X171.473 Y79.8 E44.75971
G1 X174.068 Y79.468 E44.89023
G1 X176.681 Y79.057 E45.02219
G1 X179.021 Y78.615 E45.141
G1 X179.635 Y78.506 E45.17211
G1 X180.323 Y78.425 E45.20667
G1 X181.021 Y78.417 E45.2415
G1 X181.808 Y78.478 E45.28088
G1 X182.303 Y78.55 E45.30584
G1 X182.955 Y78.651 E45.33875
G1 X183.613 Y78.764 E45.37206
G1 X184.287 Y78.92 E45.40658
G1 X185.054 Y79.203 E45.44736
G1 X185.616 Y79.47 E45.47841
G1 X186.401 Y79.887 E45.52275
G1 X187.214 Y80.333 E45.56901
G1 X189.582 Y81.548 E45.7018
G1 X191.988 Y82.697 E45.83482
G1 X194.386 Y83.762 E45.96572
G1 X196.902 Y84.795 E46.10142
G1 X199.335 Y85.71 E46.2311
G1 X202.941 Y86.932 E46.42105
G1 X275.725 Y110.007 E50.23038
G1 X278.31 Y110.787 E50.36509
G1 X280.908 Y111.49 E50.49937
G1 X283.467 Y112.107 E50.63069
G1 X286.119 Y112.668 E50.76593
G1 X286.634 Y112.761 E50.79204
G1 X286.728 Y112.784 E50.79687
G1 X288.001 Y113.026 E50.86151
G1 X288.679 Y113.197 E50.8964
G1 X289.585 Y113.482 E50.94378
G1 X289.816 Y113.559 E50.95593
G1 X290.736 Y113.89 E51.00471
G1 X291.373 Y114.162 E51.03927
G1 X291.975 Y114.505 E51.07383
G1 X292.533 Y114.915 E51.10838
G1 X292.913 Y115.259 E51.13395
G1 X293.532 Y115.869 E51.17731
G1 X293.884 Y116.226 E51.20232
G1 X294.27 Y116.629 E51.23016
G1 X294.419 Y116.792 E51.24118
G1 X294.856 Y117.329 E51.27572
G1 X295.228 Y117.913 E51.31027
G1 X295.619 Y118.762 E51.3569
G1 X295.877 Y119.516 E51.39666
G1 X296.036 Y120.004 E51.42226
G1 X296.283 Y120.81 E51.46432
G1 X296.447 Y121.483 E51.49888
G1 X296.532 Y122.17 E51.53341
G1 X296.538 Y122.862 E51.56794
G1 X296.492 Y123.363 E51.59304
G1 X296.344 Y124.464 E51.64846
G1 X296.313 Y124.663 E51.65851
G1 X296.186 Y125.416 E51.69661
G1 X296.03 Y126.099 E51.73156
G1 X295.894 Y126.562 E51.75564
G1 X295.335 Y128.395 E51.85124
G1 X294.625 Y130.979 E51.98494
G1 X293.996 Y133.557 E52.11733
G1 X293.437 Y136.16 E52.25015
G1 X293.004 Y138.486 E52.36819
G1 X285.368 Y182.473 E54.59553
G1 X284.952 Y185.085 E54.72749
G1 X284.605 Y187.748 E54.86147
G1 X284.338 Y190.38 E54.99345
G1 X284.145 Y193.03 E55.12601
G1 X284.046 Y195.065 E55.22766
G1 X283.98 Y195.704 E55.25971
G1 X283.879 Y196.347 E55.29218
G1 X283.842 Y196.559 E55.30292
G1 X283.717 Y197.201 E55.33555
G1 X283.579 Y197.852 E55.36875
G1 X283.396 Y198.52 E55.4033
G1 X283.138 Y199.163 E55.43787
G1 X282.807 Y199.771 E55.47241
G1 X282.555 Y200.146 E55.49495
G1 X282.118 Y200.744 E55.5319
G1 X281.808 Y201.156 E55.55762
G1 X281.369 Y201.721 E55.59332
G1 X280.913 Y202.243 E55.6279
G1 X280.4 Y202.708 E55.66244
G1 X279.837 Y203.111 E55.69698
G1 X279.455 Y203.334 E55.71905
G1 X278.793 Y203.686 E55.75646
G1 X278.27 Y203.955 E55.7858
G1 X277.618 Y204.274 E55.82201
G1 X276.976 Y204.533 E55.85655
G1 X276.308 Y204.716 E55.89111
G1 X275.305 Y204.843 E55.94154
G1 X274.409 Y204.88 E55.98628
G1 X273.532 Y204.895 E56.03004
G1 X273.121 Y204.891 E56.05055
G1 X272.481 Y204.843 E56.08257
G1 X271.683 Y204.741 E56.12271
G1 X268.932 Y204.429 E56.26083
G1 X266.306 Y204.205 E56.39232
G1 X263.679 Y204.056 E56.52359
G1 X260.962 Y203.979 E56.6592
G1 X259.622 Y203.97 E56.72605
G1 X40.316 Y203.971 E67.66728
G1 X37.672 Y204.008 E67.7992
G1 X34.973 Y204.123 E67.93397
G1 X32.344 Y204.309 E68.06546
G1 X29.655 Y204.576 E68.20028
G1 X28.003 Y204.779 E68.28332
G1 X27.653 Y204.825 E68.30093
G1 X27.116 Y204.871 E68.32782
G1 X26.373 Y204.895 E68.3649
G1 X26.097 Y204.893 E68.37867
G1 X25.456 Y204.878 E68.41066
G1 X24.746 Y204.851 E68.44611
G1 X24.057 Y204.784 E68.48065
G1 X23.379 Y204.639 E68.51524
G1 X22.431 Y204.289 E68.56565
G1 X21.831 Y204.005 E68.59877
G1 X21.189 Y203.677 E68.63474
G1 X20.565 Y203.346 E68.66998
G1 X19.973 Y202.987 E68.70452
G1 X19.427 Y202.562 E68.73904
G1 X19.011 Y202.162 E68.76783
G1 X18.978 Y202.127 E68.77023
G1 X18.601 Y201.686 E68.79918
G1 X18.153 Y201.107 E68.8357
G1 X17.844 Y200.693 E68.86148
G1 X17.451 Y200.156 E68.89467
G1 X17.075 Y199.575 E68.9292
G1 X16.769 Y198.954 E68.96374
G1 X16.536 Y198.302 E68.99828
G1 X16.423 Y197.854 E69.02133
G1 X16.25 Y197.03 E69.06334
G1 X16.166 Y196.595 E69.08544
G1 X16.043 Y195.908 E69.12026
G1 X15.957 Y195.156 E69.15802
G1 X15.819 Y192.451 E69.29315
G1 X15.609 Y189.799 E69.42588
G1 X15.326 Y187.173 E69.55765
G1 X14.964 Y184.511 E69.69168
G1 X14.631 Y182.467 E69.795
G1 X7.009 Y138.56 E72.01829
G1 X6.508 Y135.901 E72.15328
G1 X5.948 Y133.326 E72.28475
G1 X5.315 Y130.765 E72.41636
G1 X4.303 Y127.191 E72.60168
G1 X4.019 Y126.259 E72.65029
G1 X3.851 Y125.56 E72.68615
G1 X3.648 Y124.416 E72.74412
G1 X3.617 Y124.22 E72.75402
G1 X3.51 Y123.474 E72.79162
G1 X3.451 Y122.784 E72.82617
G1 X3.472 Y122.092 E72.86071
G1 X3.573 Y121.406 E72.8953
G1 X3.699 Y120.907 E72.92098
G1 X4.003 Y119.888 E72.97403
G1 X4.066 Y119.69 E72.9844
G1 X4.322 Y118.929 E73.02446
G1 X4.58 Y118.286 E73.05902
G1 X4.911 Y117.678 E73.09356
G1 X5.46 Y116.929 E73.13989
G1 X6.112 Y116.229 E73.18761
G1 X6.592 Y115.744 E73.22166
G1 X7.075 Y115.268 E73.25549
G1 X7.596 Y114.811 E73.29007
G1 X8.166 Y114.417 E73.32464
G1 X8.777 Y114.091 E73.35919
G1 X9.258 Y113.894 E73.38512
G1 X10.363 Y113.497 E73.4437
G1 X10.551 Y113.433 E73.4536
G1 X11.19 Y113.227 E73.4871
G1 X11.889 Y113.046 E73.52312
G1 X12.307 Y112.962 E73.54439
G1 X14.275 Y112.595 E73.64427
G1 X16.875 Y112.034 E73.77697
G1 X19.425 Y111.409 E73.90796
G1 X22.022 Y110.692 E74.04237
G1 X24.216 Y110.026 E74.15676
M205 X10 Y10
G0 F6000 X24.287 Y110.423
M205 X8 Y8
G1 F1200 X97.235 Y87.297 E77.97465
G1 X99.776 Y86.451 E78.10827
G1 X102.297 Y85.532 E78.24214
G1 X104.755 Y84.557 E78.37406
G1 X107.235 Y83.491 E78.50874
G1 X109.656 Y82.368 E78.64188
G1 X112.022 Y81.188 E78.77379
G1 X113.866 Y80.196 E78.87825
G1 X114.7 Y79.757 E78.92527
G1 X115.109 Y79.562 E78.94788
G1 X115.737 Y79.331 E78.98126
G1 X116.383 Y79.179 E79.01437
G1 X117.443 Y78.994 E79.06805
G1 X117.693 Y78.956 E79.08067
G1 X118.38 Y78.86 E79.11528
G1 X119.047 Y78.807 E79.14866
G1 X119.59 Y78.823 E79.17576
G1 X119.821 Y78.841 E79.18732
G1 X120.431 Y78.922 E79.21802
G1 X122.845 Y79.381 E79.34061
G1 X125.485 Y79.806 E79.47402
G1 X128.137 Y80.156 E79.60748
G1 X130.792 Y80.432 E79.74065
G1 X133.428 Y80.629 E79.87253
G1 X136.117 Y80.755 E80.00683
G1 X139.197 Y80.804 E80.16051
G1 X160.824 Y80.804 E81.23948
G1 X163.484 Y80.766 E81.37221
G1 X166.171 Y80.652 E81.50638
G1 X168.82 Y80.464 E81.63887
G1 X171.491 Y80.2 E81.77278
G1 X174.148 Y79.86 E81.90642
G1 X176.752 Y79.45 E82.03793
G1 X179.091 Y79.009 E82.15668
G1 X179.705 Y78.9 E82.18779
G1 X180.37 Y78.823 E82.22119
G1 X181.016 Y78.817 E82.25342
G1 X181.751 Y78.874 E82.2902
G1 X182.242 Y78.945 E82.31495
G1 X182.887 Y79.045 E82.34752
G1 X183.545 Y79.158 E82.38082
G1 X184.196 Y79.31 E82.41418
G1 X184.89 Y79.568 E82.45112
G1 X185.428 Y79.823 E82.48082
G1 X186.208 Y80.238 E82.5249
G1 X187.003 Y80.675 E82.57016
G1 X189.406 Y81.907 E82.70488
G1 X191.803 Y83.052 E82.83741
